!!!COM: Haydn, Franz Joseph
!!!OPR: Symphony in B-flat Major
!!!OTL: Menuetto and Trio
!!!OMV: 3
!!!SCT: H I:102
!!!SCA: Thematisch-bibliographisches Werkevererzeichnis (A. van Hoboken)
!!!YOR: Dover Edition; reprint of Eulenburg Edition
!!!EED: Frances Bennion
!!!ENC: Frances Bennion
!!!CDT: 1732/3/31/-1809/5/31/
!!!OCY: Österreich
!!!YEC: Copyright (c) 1994, 2000 Center for Computer Assisted Research in the Humanities
!!!YEM: Rights to all derivative editions reserved.
!!!YEM: Refer to licensing agreement for further details.
!!!YEN: United States of America
**kern	**dynam	**kern	**dynam	**kern	**dynam	**kern	**dynam	**kern	**dynam	**kern	**dynam	**kern	**dynam	**kern	**dynam	**kern	**dynam	**kern	**dynam
*I:Flauto 1, 2	*I:Flauto 1, 2	*I:Violoncello e Basso	*I:Violoncello e Basso	*I:Oboe 1, 2	*I:Oboe 1, 2	*I:Fagotto 1, 2	*I:Fagotto 1, 2	*I:Corno 1, 2 in Bb  (basso)	*I:Corno 1, 2 in Bb  (basso)	*I:Tromba 1, 2 in Bb	*I:Tromba 1, 2 in Bb	*I:Timpani in Bb, F	*I:Timpani in Bb, F	*I:Violino I	*I:Violino I	*I:Violino II	*I:Violino II	*I:Viola	*I:Viola
*>[A,A,B,B,C,C,D,D]	*	*>[A,A,B,B,C,C,D,D]	*	*>[A,A,B,B,C,C,D,D]	*	*>[A,A,B,B,C,C,D,D]	*	*>[A,A,B,B,C,C,D,D]	*	*>[A,A,B,B,C,C,D,D]	*	*>[A,A,B,B,C,C,D,D]	*	*>[A,A,B,B,C,C,D,D]	*	*>[A,A,B,B,C,C,D,D]	*	*>[A,A,B,B,C,C,D,D]	*
*>A	*	*>A	*	*>A	*	*>A	*	*>A	*	*>A	*	*>A	*	*>A	*	*>A	*	*>A	*
*clefG2	*	*clefF4	*	*clefG2	*	*clefF4	*	*clefG2	*	*clefG2	*	*clefF4	*	*clefG2	*	*clefG2	*	*clefC3	*
*k[b-e-]	*	*k[b-e-]	*	*k[b-e-]	*	*k[b-e-]	*	*k[]	*	*k[]	*	*k[]	*	*k[b-e-]	*	*k[b-e-]	*	*k[b-e-]	*
*B-:	*	*B-:	*	*B-:	*	*B-:	*	*B-:	*	*B-:	*	*B-:	*	*B-:	*	*B-:	*	*B-:	*
*M3/4	*	*M3/4	*	*M3/4	*	*M3/4	*	*M3/4	*	*M3/4	*	*M3/4	*	*M3/4	*	*M3/4	*	*M3/4	*
! Allegro	!	!	!	!	!	!	!	!	!	!	!	!	!	!	!	!	!	!	!
! a 2.	!	!	!	!	!	!	!	!	!	!	!	!	!	!	!	!	!	!	!
*tb16	*	*tb16	*	*tb16	*	*tb16	*	*tb16	*	*tb16	*	*tb16	*	*tb16	*	*tb16	*	*tb16	*
=0-	=0-	=0-	=0-	=0-	=0-	=0-	=0-	=0-	=0-	=0-	=0-	=0-	=0-	=0-	=0-	=0-	=0-	=0-	=0-
4f/xx	f	4r	.	4r	.	4r	.	4r	.	4r	.	4r	.	4f/xx	f	4r	.	4r	.
2ryy	.	2ryy	.	2ryy	.	2ryy	.	2ryy	.	2ryy	.	2ryy	.	2ryy	.	2ryy	.	2ryy	.
=1	=1	=1	=1	=1	=1	=1	=1	=1	=1	=1	=1	=1	=1	=1	=1	=1	=1	=1	=1
! (32gP/LLL	!	!	!	!	!	!	!	!	!	!	!	!	!	! (32gP/LLL	!	!	!	!	!
! 32fP/	!	!	!	!	!	!	!	!	!	!	!	!	!	! 32fP/	!	!	!	!	!
! 32eP/JJJ	!	!	!	!	!	!	!	!	!	!	!	!	!	! 32eP/JJJ	!	!	!	!	!
*	*	*	*	*^	*	*^	*	*^	*	*^	*	*	*	*	*	*	*	*^	*
4fp/)	.	4BB-/	f	4f/xx	4d\	f	4BB-/xx	4BB-\	f	4cc/xx	4e/	f	4cc/xx	4e/xx	ff	4BB/xx	f	4fp/)	.	4d/xx 4B-/	f	4d/xx	4B-\	f
4b-\	.	4r	.	4r	4ryy	.	4r	4r	.	4r	4r	.	4r	4r	.	4r	.	4b-\	.	4r	.	2ryy	4r	.
4b-\	.	4r	.	4r	4ryy	.	4r	4r	.	4r	4r	.	4r	4r	.	4r	.	4b-\	.	4r	.	.	4r	.
=2	=2	=2	=2	=2	=2	=2	=2	=2	=2	=2	=2	=2	=2	=2	=2	=2	=2	=2	=2	=2	=2	=2	=2	=2
! (32ccP/LLL	!	!	!	!	!	!	!	!	!	!	!	!	!	!	!	!	!	! (32ccP/LLL	!	!	!	!	!	!
! 32b-P/	!	!	!	!	!	!	!	!	!	!	!	!	!	!	!	!	!	! 32b-P/	!	!	!	!	!	!
! 32aP/JJJ	!	!	!	!	!	!	!	!	!	!	!	!	!	!	!	!	!	! 32aP/JJJ	!	!	!	!	!	!
4b-p\)	.	4BB-/	.	4b-/	4f\	.	4BB-/	4BB-\	.	4cc\	4e/	.	4cc/	4e/	.	4BB/	.	4b-p\)	.	4f/ 4d/	.	4d/	4B-\	.
4dd\	.	4r	.	4r	4ryy	.	4r	4r	.	4r	4r	.	4r	4r	.	4r	.	4dd\	.	4r	.	2ryy	4r	.
4dd\	.	4r	.	4dd/	4b-\	.	4r	4r	.	4r	4r	.	4r	4r	.	4r	.	4dd\	.	4r	.	.	4r	.
=3	=3	=3	=3	=3	=3	=3	=3	=3	=3	=3	=3	=3	=3	=3	=3	=3	=3	=3	=3	=3	=3	=3	=3	=3
! (32ee-P/LLL	!	!	!	! (32ee-P/LLL	!	!	!	!	!	!	!	!	!	!	!	!	!	! (32ee-P/LLL	!	! (32ccP/LLL	!	!	!	!
! 32ddP/	!	!	!	! 32ddP/	!	!	!	!	!	!	!	!	!	!	!	!	!	! 32ddP/	!	! 32b-P/	!	!	!	!
! 32ccP/JJJ	!	!	!	! 32ccP/JJJ	!	!	!	!	!	!	!	!	!	!	!	!	!	! 32ccP/JJJ	!	! 32aP/JJJ	!	!	!	!
4ddp\)	.	4BB-/	.	4ddp/)	4b-\	.	2B-/	2B-\	.	4cc/	4c/	.	4cc/	4e/	.	4BB/	.	4ddp\)	.	4b-p\)	.	2d/	2B-\	.
4ff\	.	4BB-/	.	4ff/	4dd\	.	.	.	.	4cc/	4c/	.	4cc/	4c/	.	8BB/L	.	4ff\	.	4dd\	.	.	.	.
.	.	.	.	.	.	.	.	.	.	.	.	.	.	.	.	8BB/	.	.	.	.	.	.	.	.
8bb-\L	.	4BB-/	.	8bb-/L	8gg\L	.	8E-/L	8E-\L	.	4cc/	4c/	.	4cc/	4c/	.	8BB/	.	8bb-\L	.	8gg\L	.	4ryy	8e-\L	.
8gg\J	.	.	.	8gg/J	8ee-\J	.	8G/J	8G\J	.	.	.	.	.	.	.	8BB/J	.	8gg\J	.	8ee-\J	.	.	8g\J	.
=4	=4	=4	=4	=4	=4	=4	=4	=4	=4	=4	=4	=4	=4	=4	=4	=4	=4	=4	=4	=4	=4	=4	=4	=4
2ff\	.	2BB-/	.	2ff/	2dd\	.	2B-/	2B-\	.	4cc/	4c/	.	4cc/	4c/	.	4BB/	.	2ff\	.	2dd\	.	2b-\	2ryy	.
.	.	.	.	.	.	.	.	.	.	4r	4r	.	4r	4r	.	4r	.	.	.	.	.	.	.	.
*	*	*	*	*	*	*	*clefC4	*	*	*	*	*	*	*	*	*	*	*	*	*	*	*	*	*
(8gg\L	.	4r	.	4gg/	4ee-\	.	4g/	4e-\	.	4r	4r	.	4r	4r	.	4r	.	(8gg\L	.	(8gg\L	.	4g/	4e-\	.
8ee-\J)	.	.	.	.	.	.	.	.	.	.	.	.	.	.	.	.	.	8ee-\J)	.	8ee-\J)	.	.	.	.
=5	=5	=5	=5	=5	=5	=5	=5	=5	=5	=5	=5	=5	=5	=5	=5	=5	=5	=5	=5	=5	=5	=5	=5	=5
(8ff\L	.	2.r	.	(4ff/	(4dd\	.	(4f/	(4d\	.	2.r	2.r	.	2.r	2.r	.	2.r	.	(8ff\L	.	(8ff\L	.	(4f/	(4d\	.
8dd\)	.	.	.	.	.	.	.	.	.	.	.	.	.	.	.	.	.	8dd\)	.	8dd\)	.	.	.	.
(8ee-\	.	.	.	4ee-/	4cc\	.	4e-/	4c\	.	.	.	.	.	.	.	.	.	(8ee-\	.	(8ee-\	.	4e-/	4c\	.
8cc\)	.	.	.	.	.	.	.	.	.	.	.	.	.	.	.	.	.	8cc\)	.	8cc\)	.	.	.	.
(8dd\	.	.	.	4dd/)	4bn\)	.	4d/)	4Bn\)	.	.	.	.	.	.	.	.	.	(8dd\	.	(8dd\	.	4d/)	4Bn\)	.
8bn\J)	.	.	.	.	.	.	.	.	.	.	.	.	.	.	.	.	.	8bn\J)	.	8bn\J)	.	.	.	.
=6	=6	=6	=6	=6	=6	=6	=6	=6	=6	=6	=6	=6	=6	=6	=6	=6	=6	=6	=6	=6	=6	=6	=6	=6
4cc'\	.	4r	.	4ee-'/	4cc'\	.	4e-'/	4c'\	.	2.r	2.r	.	2.r	2.r	.	2.r	.	4cc'\	.	4cc'\	.	4e-'/	4c'\	.
4cc'\	.	4r	.	4ee-'/	4cc'\	.	4e-'/	4c'\	.	.	.	.	.	.	.	.	.	4cc'\	.	4cc'\	.	4e-'/	4c'\	.
(8ee-\L	.	(8C/L	.	4ee-/	4g\	.	4g/	4e-\	.	.	.	.	.	.	.	.	.	(8ee-\L	.	(8g/L	.	4g/	4e-\	.
8cc\J)	.	8D/J)	.	.	.	.	.	.	.	.	.	.	.	.	.	.	.	8cc\J)	.	8e-/J)	.	.	.	.
=7	=7	=7	=7	=7	=7	=7	=7	=7	=7	=7	=7	=7	=7	=7	=7	=7	=7	=7	=7	=7	=7	=7	=7	=7
(8dd\L	.	4E-'\	.	(4dd/	(4f\	.	(4f/	(4d\	.	2.r	2.r	.	2.r	2.r	.	2.r	.	(8dd\L	.	(8f/L	.	(4f/	(4d\	.
8b-\)	.	.	.	.	.	.	.	.	.	.	.	.	.	.	.	.	.	8b-\)	.	8d/)	.	.	.	.
(8cc\	.	4E-'\	.	4cc/	4e-\	.	4e-/	4c\	.	.	.	.	.	.	.	.	.	(8cc\	.	(8e-/	.	4e-/	4c\	.
8a\)	.	.	.	.	.	.	.	.	.	.	.	.	.	.	.	.	.	8a\)	.	8c/)	.	.	.	.
(8b-\	.	4En'\	.	4b-/)	4d\)	.	4d/)	4B-\)	.	.	.	.	.	.	.	.	.	(8b-\	.	(8d/	.	4d/)	4B-\)	.
8g\J)	.	.	.	.	.	.	.	.	.	.	.	.	.	.	.	.	.	8g\J)	.	8B-/J)	.	.	.	.
*	*	*	*	*	*	*	*	*clefF4	*	*	*	*	*	*	*	*	*	*	*	*	*	*	*	*
=8	=8	=8	=8	=8	=8	=8	=8	=8	=8	=8	=8	=8	=8	=8	=8	=8	=8	=8	=8	=8	=8	=8	=8	=8
4f'/	.	4F'\	.	4f'/	4f'\	.	4F'/	4F'\	.	2.r	2.r	.	2.r	2.r	.	2.r	.	4f'/	.	4f'/	.	4f'/	4F'\	.
4f'/	.	4F'\	.	4f'/	4f'\	.	4F'/	4F'\	.	.	.	.	.	.	.	.	.	4f'/	.	4f'/	.	4f'/	4F'\	.
4fz/	z	4r	.	4r	4r	.	4r	4r	.	.	.	.	.	.	.	.	.	4fz/	z	4r	.	4ryy	4r	.
=9	=9	=9	=9	=9	=9	=9	=9	=9	=9	=9	=9	=9	=9	=9	=9	=9	=9	=9	=9	=9	=9	=9	=9	=9
! (32gP/LLL	!	!	!	!	!	!	!	!	!	!	!	!	!	!	!	!	!	! (32gP/LLL	!	!	!	!	!	!
! 32fP/	!	!	!	!	!	!	!	!	!	!	!	!	!	!	!	!	!	! 32fP/	!	!	!	!	!	!
! 32eP/JJJ	!	!	!	!	!	!	!	!	!	!	!	!	!	!	!	!	!	! 32eP/JJJ	!	!	!	!	!	!
4fp/)	.	4BB-/	.	4f/	4d\	.	4BB-/	4BB-\	.	4cc/	4e/	.	4cc/	4e/	.	4BB/	.	4fp/)	.	4d/ 4B-/	.	4d/	4B-\	.
4b-\	.	4r	.	4r	4ryy	.	4r	4ryy	.	4r	4r	.	4r	4r	.	4r	.	4b-\	.	4r	.	2ryy	4r	.
4b-\	.	4r	.	4r	4ryy	.	4r	4ryy	.	4r	4r	.	4r	4r	.	4r	.	4b-\	.	4r	.	.	4r	.
=10	=10	=10	=10	=10	=10	=10	=10	=10	=10	=10	=10	=10	=10	=10	=10	=10	=10	=10	=10	=10	=10	=10	=10	=10
! (32ccP/LLL	!	!	!	!	!	!	!	!	!	!	!	!	!	!	!	!	!	! (32ccP/LLL	!	!	!	!	!	!
! 32b-P/	!	!	!	!	!	!	!	!	!	!	!	!	!	!	!	!	!	! 32b-P/	!	!	!	!	!	!
! 32aP/JJJ	!	!	!	!	!	!	!	!	!	!	!	!	!	!	!	!	!	! 32aP/JJJ	!	!	!	!	!	!
4b-p\)	.	4BB-/	.	4b-/	4f\	.	4BB-/	4BB-\	.	4cc/	4e/	.	4cc/	4e/	.	4BB/	.	4b-p\)	.	4f/ 4d/	.	4d/	4B-\	.
4dd\	.	4r	.	4r	4ryy	.	4r	4ryy	.	4r	4r	.	4r	4r	.	4r	.	4dd\	.	4r	.	2ryy	4r	.
4dd\	.	4r	.	4dd/	4b-\	.	4r	4ryy	.	4r	4r	.	4r	4r	.	4r	.	4dd\	.	4r	.	.	4r	.
=11	=11	=11	=11	=11	=11	=11	=11	=11	=11	=11	=11	=11	=11	=11	=11	=11	=11	=11	=11	=11	=11	=11	=11	=11
! (32ee-P/LLL	!	!	!	! (32ee-P/LLL	!	!	!	!	!	!	!	!	!	!	!	!	!	! (32ee-P/LLL	!	! (32ccP/LLL	!	!	!	!
! 32ddP/	!	!	!	! 32ddP/	!	!	!	!	!	!	!	!	!	!	!	!	!	! 32ddP/	!	! 32b-P/	!	!	!	!
! 32ccP/JJJ	!	!	!	! 32ccP/JJJ	!	!	!	!	!	!	!	!	!	!	!	!	!	! 32ccP/JJJ	!	! 32aP/JJJ	!	!	!	!
4ddp\)	.	4BB-/	.	4ddp/)	4b-\	.	2B-/	2B-\	.	4cc/	4c/	.	4cc/	4c/	.	16BB/LL	.	4ddp\)	.	4b-p\)	.	2d/	2B-\	.
.	.	.	.	.	.	.	.	.	.	.	.	.	.	.	.	16BB/	.	.	.	.	.	.	.	.
.	.	.	.	.	.	.	.	.	.	.	.	.	.	.	.	16BB/	.	.	.	.	.	.	.	.
.	.	.	.	.	.	.	.	.	.	.	.	.	.	.	.	16BB/	.	.	.	.	.	.	.	.
4ff\	.	4BB-/	.	4ff/	4dd\	.	.	.	.	4cc/	4c/	.	4cc/	4c/	.	16BB/	.	4ff\	.	4dd\	.	.	.	.
.	.	.	.	.	.	.	.	.	.	.	.	.	.	.	.	16BB/	.	.	.	.	.	.	.	.
.	.	.	.	.	.	.	.	.	.	.	.	.	.	.	.	16BB/	.	.	.	.	.	.	.	.
.	.	.	.	.	.	.	.	.	.	.	.	.	.	.	.	16BB/	.	.	.	.	.	.	.	.
8bb-\L	.	4BB-/	.	8bb-/L	8gg\L	.	8E-/L	8E-\L	.	4cc/	4c/	.	4cc/	4c/	.	16BB/	.	8bb-\L	.	8gg\L	.	4ryy	8e-\L	.
.	.	.	.	.	.	.	.	.	.	.	.	.	.	.	.	16BB/	.	.	.	.	.	.	.	.
8gg\J	.	.	.	8gg/J	8ee-\J	.	8G/J	8G\J	.	.	.	.	.	.	.	16BB/	.	8gg\J	.	8ee-\J	.	.	8g\J	.
.	.	.	.	.	.	.	.	.	.	.	.	.	.	.	.	16BB/JJ	.	.	.	.	.	.	.	.
=12	=12	=12	=12	=12	=12	=12	=12	=12	=12	=12	=12	=12	=12	=12	=12	=12	=12	=12	=12	=12	=12	=12	=12	=12
*	*	*	*	*	*	*	*	*	*	*	*	*	*	*	*	*	*	*	*	*	*	*v	*v	*
2ff\	.	2BB-/	.	2ff/	2dd\	.	2B-/	2B-\	.	4cc/	4c/	.	4cc/	4c/	.	4BB/	.	2ff\	.	2dd\	.	2b-\	.
.	.	.	.	.	.	.	.	.	.	4r	4r	.	4r	4r	.	4r	.	.	.	.	.	.	.
(8een\L	p	4r	.	4cc'/	4r	p	4r	4ryy	.	4r	4r	.	4r	4r	.	4r	.	(8een\L	p	4b-'\	p	4r	.
8gg\J)	.	.	.	.	.	.	.	.	.	.	.	.	.	.	.	.	.	8gg\J)	.	.	.	.	.
=13	=13	=13	=13	=13	=13	=13	=13	=13	=13	=13	=13	=13	=13	=13	=13	=13	=13	=13	=13	=13	=13	=13	=13
(8ff\L	.	2.r	.	4cc'/	4r	.	2.r	2.r	.	2.r	2.r	.	2.r	2.r	.	2.r	.	(8ff\L	.	4a'/	.	2.r	.
8aa\)	.	.	.	.	.	.	.	.	.	.	.	.	.	.	.	.	.	8aa\)	.	.	.	.	.
(8gg\	.	.	.	4cc'/	4r	.	.	.	.	.	.	.	.	.	.	.	.	(8gg\	.	4en'/	.	.	.
8bb-\J)	.	.	.	.	.	.	.	.	.	.	.	.	.	.	.	.	.	8bb-\J)	.	.	.	.	.
(8een\L	.	.	.	4r	4cc'\	p	.	.	.	.	.	.	.	.	.	.	.	(8een\L	.	4b-'\	.	.	.
8gg\J)	.	.	.	.	.	.	.	.	.	.	.	.	.	.	.	.	.	8gg\J)	.	.	.	.	.
=14	=14	=14	=14	=14	=14	=14	=14	=14	=14	=14	=14	=14	=14	=14	=14	=14	=14	=14	=14	=14	=14	=14	=14
(8ff\L	.	4r	.	4r	4cc'\	.	4r	4ryy	.	2.r	2.r	.	2.r	2.r	.	2.r	.	(8ff\L	.	4a'/	.	4r	.
8aa\)	.	.	.	.	.	.	.	.	.	.	.	.	.	.	.	.	.	8aa\)	.	.	.	.	.
(8gg\	.	4r	.	4r	4cc'\	.	4r	4ryy	.	.	.	.	.	.	.	.	.	(8gg\	.	4en'/	.	4r	.
8bb-\J)	.	.	.	.	.	.	.	.	.	.	.	.	.	.	.	.	.	8bb-\J)	.	.	.	.	.
4cc'\	f	4C'/	f	4c'/	4c'\	f	4C'/	4C'\	f	.	.	.	.	.	.	.	.	4c'/	f	4c'/	f	4c/ 4C'/	f
=15	=15	=15	=15	=15	=15	=15	=15	=15	=15	=15	=15	=15	=15	=15	=15	=15	=15	=15	=15	=15	=15	=15	=15
4cc'\	.	4C'/	.	4c'/	4c'\	.	4C'/	4C'\	.	2.r	2.r	.	2.r	2.r	.	2.r	.	4c'/	.	4c'/	.	4c/ 4C'/	.
4cc'\	.	4C'/	.	4c'/	4c'\	.	4C'/	4C'\	.	.	.	.	.	.	.	.	.	4c'/	.	4c'/	.	4c/ 4C'/	.
(8ff\L	p	4r	.	4cc'/	4r	p	4r	4ryy	.	.	.	.	.	.	.	.	.	(8ff\L	p	4a'/	p	4r	.
8aa\J)	.	.	.	.	.	.	.	.	.	.	.	.	.	.	.	.	.	8aa\J)	.	.	.	.	.
=16	=16	=16	=16	=16	=16	=16	=16	=16	=16	=16	=16	=16	=16	=16	=16	=16	=16	=16	=16	=16	=16	=16	=16
(8gg\L	.	2.r	.	4cc'/	4r	.	2.r	2.r	.	2.r	2.r	.	2.r	2.r	.	2.r	.	(8gg\L	.	4en'/	.	2.r	.
8bb-\)	.	.	.	.	.	.	.	.	.	.	.	.	.	.	.	.	.	8bb-\)	.	.	.	.	.
(8aa\	.	.	.	4cc'/	4r	.	.	.	.	.	.	.	.	.	.	.	.	(8aa\	.	4f'/	.	.	.
8ccc\J)	.	.	.	.	.	.	.	.	.	.	.	.	.	.	.	.	.	8ccc\J)	.	.	.	.	.
(8ff\L	.	.	.	4r	4cc'\	p	.	.	.	.	.	.	.	.	.	.	.	(8ff\L	.	4a'/	.	.	.
8aa\J)	.	.	.	.	.	.	.	.	.	.	.	.	.	.	.	.	.	8aa\J)	.	.	.	.	.
=17	=17	=17	=17	=17	=17	=17	=17	=17	=17	=17	=17	=17	=17	=17	=17	=17	=17	=17	=17	=17	=17	=17	=17
(8gg\L	.	4r	.	4r	4cc'\	.	4r	4ryy	.	2.r	2.r	.	2.r	2.r	.	2.r	.	(8gg\L	.	4en'/	.	4r	.
8bb-\)	.	.	.	.	.	.	.	.	.	.	.	.	.	.	.	.	.	8bb-\)	.	.	.	.	.
(8aa\	.	4r	.	4r	4cc'\	.	4r	4ryy	.	.	.	.	.	.	.	.	.	(8aa\	.	4f'/	.	4r	.
8ccc\J)	.	.	.	.	.	.	.	.	.	.	.	.	.	.	.	.	.	8ccc\J)	.	.	.	.	.
4d'/	f	4D'\	f	4d'/	4d'\	f	4D'/	4D'\	f	.	.	.	.	.	.	.	.	4d'/	f	4d'/	f	4D'/	f
=18	=18	=18	=18	=18	=18	=18	=18	=18	=18	=18	=18	=18	=18	=18	=18	=18	=18	=18	=18	=18	=18	=18	=18
4d'/	.	4D'\	.	4d'/	4d'\	.	4D'/	4D'\	.	4r	4ryy	.	4r	4ryy	.	4r	.	4d'/	.	4d'/	.	4D'/	.
4d'/	.	4D'\	.	4d'/	4d'\	.	4D'/	4D'\	.	4r	4ryy	.	4r	4ryy	.	4r	.	4d'/	.	4d'/	.	4D'/	.
4ddd\	.	4BB-/	.	4ddd/	4bb-\	.	4f/	4f\	.	4ee/	4cc\	f	4ee/	4cc\	f	4BB/	f	4ddd\	.	4bb-\	.	4f\	.
=19	=19	=19	=19	=19	=19	=19	=19	=19	=19	=19	=19	=19	=19	=19	=19	=19	=19	=19	=19	=19	=19	=19	=19
4ddd\	.	4BB-/	.	4ddd/	4bb-\	.	4f/	4f\	.	4ee/	4cc\	.	4ee/	4cc\	.	4BB/	.	4ddd\	.	4bb-\	.	4f\	.
4ddd\	.	4BB-/	.	4ddd/	4bb-\	.	4f/	4f\	.	4ee/	4cc\	.	4ee/	4cc\	.	4BB/	.	4ddd\	.	4bb-\	.	4f\	.
4een\	.	4C/	.	4een/	4een\	.	4G/	4G\	.	4dd/	4dd\	.	4dd/	4dd\	.	4BB/	.	4een\ 4b-\	.	4een\ 4b-\	.	4G/	.
=20	=20	=20	=20	=20	=20	=20	=20	=20	=20	=20	=20	=20	=20	=20	=20	=20	=20	=20	=20	=20	=20	=20	=20
4ff\	.	4F\	.	4ff/	4ff\	.	4A/	4A\	.	4dd/	4g\	.	4dd/	4g\	.	4FF/	.	4ff\ 4a\	.	4ff\ 4a\	.	4A/	.
4r	.	4r	.	4r	4ryy	.	4r	4r	.	4r	4ryy	.	4r	4ryy	.	4r	.	4r	.	4r	.	4r	.
=:!!:	=:!!:	=:!!:	=:!!:	=:!!:	=:!!:	=:!!:	=:!!:	=:!!:	=:!!:	=:!!:	=:!!:	=:!!:	=:!!:	=:!!:	=:!!:	=:!!:	=:!!:	=:!!:	=:!!:	=:!!:	=:!!:	=:!!:	=:!!:
*>B	*	*>B	*	*	*	*	*	*	*	*	*	*	*>B	*	*	*>B	*	*>B	*	*>B	*	*>B	*
*	*	*	*	*v	*v	*	*	*	*	*	*	*	*	*	*	*	*	*	*	*	*	*	*
*	*	*	*	*>B	*	*	*	*	*	*	*	*	*	*	*	*	*	*	*	*	*	*
*	*	*	*	*	*	*v	*v	*	*	*	*	*	*	*	*	*	*	*	*	*	*	*
*	*	*	*	*	*	*>B	*	*	*	*	*	*	*	*	*	*	*	*	*	*	*
*	*	*	*	*	*	*	*	*v	*v	*	*	*	*	*	*	*	*	*	*	*	*
*	*	*	*	*	*	*	*	*>B	*	*	*	*	*	*	*	*	*	*	*	*
4r	.	4A-'\	p	4r	.	4r	.	4r	.	4r	4r	.	4r	.	4r	.	4r	.	4r	.
2ryy	.	2ryy	.	2ryy	.	2ryy	.	2ryy	.	2ryy	2ryy	.	2ryy	.	2ryy	.	2ryy	.	2ryy	.
=21	=21	=21	=21	=21	=21	=21	=21	=21	=21	=21	=21	=21	=21	=21	=21	=21	=21	=21	=21	=21
*^	*	*	*	*^	*	*^	*	*^	*	*	*	*	*	*	*	*	*	*	*	*
2.r	2.r	.	4A-'\	.	2.r	2.r	.	2.r	2.r	.	2.r	2.r	.	2.r	2.r	.	2.r	.	2.r	.	2.r	.	4r	.
.	.	.	4A-'\	.	.	.	.	.	.	.	.	.	.	.	.	.	.	.	.	.	.	.	4r	.
.	.	.	4r	.	.	.	.	.	.	.	.	.	.	.	.	.	.	.	.	.	.	.	4f'\	p
=22	=22	=22	=22	=22	=22	=22	=22	=22	=22	=22	=22	=22	=22	=22	=22	=22	=22	=22	=22	=22	=22	=22	=22	=22
2.r	2.r	.	2.r	.	2.r	2.r	.	2.r	2.r	.	2.r	2.r	.	2.r	2.r	.	2.r	.	2.r	.	4r	.	4f'\	.
.	.	.	.	.	.	.	.	.	.	.	.	.	.	.	.	.	.	.	.	.	4r	.	4f'\	.
.	.	.	.	.	.	.	.	.	.	.	.	.	.	.	.	.	.	.	.	.	4bn'\	p	4r	.
=23	=23	=23	=23	=23	=23	=23	=23	=23	=23	=23	=23	=23	=23	=23	=23	=23	=23	=23	=23	=23	=23	=23	=23	=23
4r	4ryy	.	4r	.	4r	4ryy	.	4r	4ryy	.	4r	4ryy	.	2.r	2.r	.	2.r	.	4r	.	4bn'\	.	4r	.
4r	4ryy	.	4r	.	4r	4ryy	.	4r	4ryy	.	4r	4ryy	.	.	.	.	.	.	4r	.	4b'\	.	4r	.
4ddd'/	4bbn'\	ff	4G'\	f	4aa-'/	4ff'\	f	4GG'/	4GG'\	f	4g'/	4e'\	f	.	.	.	.	.	(8aa-\L	f	4b/ 4d'/	f	(8f\L	f
.	.	.	.	.	.	.	.	.	.	.	.	.	.	.	.	.	.	.	8ff\J)	.	.	.	8a-\J)	.
=24	=24	=24	=24	=24	=24	=24	=24	=24	=24	=24	=24	=24	=24	=24	=24	=24	=24	=24	=24	=24	=24	=24	=24	=24
4ddd'/	4bbn'\	.	4G'\	.	4aa-'/	4ff'\	.	4GG'/	4GG'\	.	4g'/	4e'\	.	2.r	2.r	.	2.r	.	(8aa-\L	.	4bn/ 4d'/	.	(8f\L	.
.	.	.	.	.	.	.	.	.	.	.	.	.	.	.	.	.	.	.	8ff\)	.	.	.	8a-\)	.
4ddd'/	4bb'\	.	4G'\	.	4aa-'/	4ff'\	.	4GG'/	4GG'\	.	4g'/	4e'\	.	.	.	.	.	.	(8aa-\	.	4b/ 4d'/	.	(8f\	.
.	.	.	.	.	.	.	.	.	.	.	.	.	.	.	.	.	.	.	8ff\)	.	.	.	8a-\)	.
4ddd'/	4bb'\	.	4GG'/	.	4aa-'/	4ff'\	.	4G'/	4G'\	.	4g'/	4e'\	.	.	.	.	.	.	(8aa-\	.	4b/ 4d'/	.	(8f\	.
.	.	.	.	.	.	.	.	.	.	.	.	.	.	.	.	.	.	.	8ff\J)	.	.	.	8a-\J)	.
=25	=25	=25	=25	=25	=25	=25	=25	=25	=25	=25	=25	=25	=25	=25	=25	=25	=25	=25	=25	=25	=25	=25	=25	=25
(4ddd/	(4bbn\	.	4GG'/	.	(4aa-/	(4ff\	.	4G'/	4G'\	.	4g'/	4e'\	.	2.r	2.r	.	2.r	.	(8aa-\L	.	(8bn\L	.	(8f\L	.
.	.	.	.	.	.	.	.	.	.	.	.	.	.	.	.	.	.	.	8ff\)	.	8dd\)	.	8a-\)	.
4eee-/	4ccc\	.	4GG'/	.	4gg/	4ee-\	.	4G'/	4G'\	.	4r	4ryy	.	.	.	.	.	.	(8gg\	.	(8ee-\	.	(8e-\	.
.	.	.	.	.	.	.	.	.	.	.	.	.	.	.	.	.	.	.	8ee-\)	.	8cc\)	.	8g\)	.
4fff/)	4ddd\)	.	4GG'/	.	4ff/)	4dd\)	.	4GG'/	4GG'\	.	4r	4ryy	.	.	.	.	.	.	(8ff\	.	(8b\	.	(8d\	.
.	.	.	.	.	.	.	.	.	.	.	.	.	.	.	.	.	.	.	8dd\J)	.	8dd\J)	.	8f\J)	.
=26	=26	=26	=26	=26	=26	=26	=26	=26	=26	=26	=26	=26	=26	=26	=26	=26	=26	=26	=26	=26	=26	=26	=26	=26
2eee-/	2ccc\	.	4C'/	.	4ee-'/	2ee-\	.	4C'/	4C'\	.	2.r	2.r	.	2.r	2.r	.	2.r	.	4ee-'\	.	4g'/	.	4e-'\	.
.	.	.	4C'/	.	4ee-'/	.	.	4C'/	4C'\	.	.	.	.	.	.	.	.	.	4ee-'\	.	4gg'\	.	4e-'\	.
4ccc'/	4ccc'\	.	4E-'\	.	4gg'/	4cc'\	.	4E-'/	4E-'\	.	.	.	.	.	.	.	.	.	4ccc'\	.	4ee-'\	.	4g'\	.
=27	=27	=27	=27	=27	=27	=27	=27	=27	=27	=27	=27	=27	=27	=27	=27	=27	=27	=27	=27	=27	=27	=27	=27	=27
4dd'/	4dd'\	.	2F\	.	2aa-/	2cc\	.	2F/	2F\	.	2.r	2.r	.	2.r	2.r	.	2.r	.	4dd'\	.	2cc\	.	2a-\	.
4dd'/	4dd'\	.	.	.	.	.	.	.	.	.	.	.	.	.	.	.	.	.	4dd'\	.	.	.	.	.
4gg'/	4gg'\	.	4G'\	.	4dd'/xx	4bn'\	.	4G'/	4G'\	.	.	.	.	.	.	.	.	.	4gg'\	.	4bn'\	.	4f'\	.
=28	=28	=28	=28	=28	=28	=28	=28	=28	=28	=28	=28	=28	=28	=28	=28	=28	=28	=28	=28	=28	=28	=28	=28	=28
4cc'/	4cc'\	.	4A-'\	.	4cc'/	4cc'\	.	4A-'/	4A-'\	.	2.r	2.r	.	2.r	2.r	.	2.r	.	4cc'\	.	4cc'\	.	4e-'\	.
4r	4r	.	4r	.	4r	4ryy	.	4r	4r	.	.	.	.	.	.	.	.	.	4r	.	4r	.	4r	.
4cc'/	4cc'\	.	4E-'\	.	4cc'/	4g'\	.	4E-'/	4E-'\	.	.	.	.	.	.	.	.	.	4cc'\	.	4c'/	.	4G'/	.
=29	=29	=29	=29	=29	=29	=29	=29	=29	=29	=29	=29	=29	=29	=29	=29	=29	=29	=29	=29	=29	=29	=29	=29	=29
4dd'/	4dd'\	.	2F\	.	2cc/	2a-\	.	2F/	2F\	.	2.r	2.r	.	2.r	2.r	.	2.r	.	4d'/	.	2c/	.	2A-/	.
4dd'/	4dd'\	.	.	.	.	.	.	.	.	.	.	.	.	.	.	.	.	.	4d'/	.	.	.	.	.
4gg'/	4gg'\	.	4G'\	.	4bn'/	4g'\	.	4G'/	4G'\	.	.	.	.	.	.	.	.	.	4g'/	.	4Bn'/	.	4G'/	.
=30	=30	=30	=30	=30	=30	=30	=30	=30	=30	=30	=30	=30	=30	=30	=30	=30	=30	=30	=30	=30	=30	=30	=30	=30
*	*	*	*	*	*	*	*	*	*	*	*v	*v	*	*	*	*	*	*	*	*	*	*	*	*
*	*	*	*	*	*	*	*	*	*	*	*	*	*v	*v	*	*	*	*	*	*	*	*	*
2cc;/	2cc\	.	2En;\	.	2b-;/	2g\	.	2En;/	2En\	.	4r	.	4r	.	4r	.	2c;/	.	2B-;/	.	2G;/	.
.	.	.	.	.	.	.	.	.	.	.	4r;	.	4r;	.	4r;	.	.	.	.	.	.	.
4r	4r	.	4r	.	4r	4ryy	.	4r	4ryy	.	4r	.	4r	.	4r	.	4c/	p	4r	.	4r	.
=31	=31	=31	=31	=31	=31	=31	=31	=31	=31	=31	=31	=31	=31	=31	=31	=31	=31	=31	=31	=31	=31	=31
!	! Flutes rest until the third beat of Meas. 34 in Pleyel.	!	!	!	!	!	!	! No notes for the bassoons in Pleyel & the Ef4s and F4s are missing from the chords.	!	!	!	!	!	!	!	!	! (32dP/LLL	!	!	!	!	!
*	*	*	*	*	*	*	*	*	*	*	*^	*	*^	*	*	*	*	*	*	*	*	*
!	!	!	!	!	!	!	!	!	!	!	!	!	!	!	!	!	!	!	! 32cP/	!	!	!	!	!
!	!	!	!	!	!	!	!	!	!	!	!	!	!	!	!	!	!	!	! 32BP/JJJ	!	!	!	!	!
2.r	4r	.	2E-\	p	4r	4ryy	.	4r	2.r	.	2.r	2.r	.	2.r	2.r	.	2.r	.	4cp/)	.	2A/	p	2F/	p
.	4r	.	.	.	4r	4ryy	.	4r	.	.	.	.	.	.	.	.	.	.	4f'/	.	.	.	.	.
.	4cc'\	p	4r	.	4ff'/	4an'\	p	4e-'/	.	p	.	.	.	.	.	.	.	.	4r	.	4r	.	4r	.
=32	=32	=32	=32	=32	=32	=32	=32	=32	=32	=32	=32	=32	=32	=32	=32	=32	=32	=32	=32	=32	=32	=32	=32	=32
2.r	4cc'\	.	2.r	.	4ff'/	4a'\	.	4e-'/	2.r	.	2.r	2.r	.	2.r	2.r	.	2.r	.	4r	.	2.r	.	2.r	.
.	4cc'\	.	.	.	4ff'/	4a'\	.	4e-'/	.	.	.	.	.	.	.	.	.	.	4r	.	.	.	.	.
.	4r	.	.	.	4r	4ryy	.	4r	.	.	.	.	.	.	.	.	.	.	4e-/	.	.	.	.	.
=33	=33	=33	=33	=33	=33	=33	=33	=33	=33	=33	=33	=33	=33	=33	=33	=33	=33	=33	=33	=33	=33	=33	=33	=33
! In Pleyel the following three C6s are played by the oboe and the flutes rest.	!	!	!	!	!	!	!	!	!	!	!	!	!	!	!	!	!	!	! (32fP/LLL	!	!	!	!	!
!	!	!	!	!	!	!	!	!	!	!	!	!	!	!	!	!	!	!	! 32e-P/	!	!	!	!	!
!	!	!	!	!	!	!	!	!	!	!	!	!	!	!	!	!	!	!	! 32dP/JJJ	!	!	!	!	!
4r	2.r	.	2AA/	.	4r	4ryy	.	4r	2.r	.	2.r	2.r	.	2.r	2.r	.	2.r	.	4e-p/)	.	2c/	.	2F/	.
4r	.	.	.	.	4r	4ryy	.	4r	.	.	.	.	.	.	.	.	.	.	4cc\	.	.	.	.	.
!	!	!	!	!	! In Pleyel the following three A4s are C6s & the A4s are missing from the chords.	!	!	!	!	!	!	!	!	!	!	!	!	!	!	!	!	!	!	!
4ccc'/	.	p	4r	.	4a'/	4ee-'\	.	4f'/	.	.	.	.	.	.	.	.	.	.	4r	.	4r	.	4r	.
=34	=34	=34	=34	=34	=34	=34	=34	=34	=34	=34	=34	=34	=34	=34	=34	=34	=34	=34	=34	=34	=34	=34	=34	=34
4ccc'/	4r	.	2.r	.	4a'/	4ee-'\	.	4f'/	4r	.	4r	4r	.	2.r	2.r	.	2.r	.	4r	.	2.r	.	2.r	.
4ccc'/	4r	.	.	.	4a'/	4ee-'\	.	4f'/	4r	.	4r	4r	.	.	.	.	.	.	4r	.	.	.	.	.
*	*	*	*	*	*	*	*	*clefC4	*	*	*	*	*	*	*	*	*	*	*	*	*	*	*	*
4fff/	4ddd\	f	.	.	4ff/	4r	f	4f/	4d\	f	4gg\	4ee\	f	.	.	.	.	.	4f/	f	.	.	.	.
=35	=35	=35	=35	=35	=35	=35	=35	=35	=35	=35	=35	=35	=35	=35	=35	=35	=35	=35	=35	=35	=35	=35	=35	=35
!	!	!	!	!	! (32ggP/LLL	!	!	!	!	!	!	!	!	!	!	!	!	!	! (32gP/LLL	!	!	!	!	!
!	!	!	!	!	! 32ffP/	!	!	!	!	!	!	!	!	!	!	!	!	!	! 32fP/	!	!	!	!	!
!	!	!	!	!	! 32eeP/JJJ	!	!	!	!	!	!	!	!	!	!	!	!	!	! 32eP/JJJ	!	!	!	!	!
*	*	*	*	*	*	*	*	*	*	*	*	*	*	*	*	*	*	*	*	*	*	*	*^	*
4fff/	4ddd\	.	4BB-/	f	4ffp/)	4dd\	.	4f/	4d\	.	4gg\	4ee\	.	4cc/	4e/	ff	4BB/	f	4fp/)	.	4d/ 4B-/	f	4d/xx	4B-\	f
4ddd/	4bb-\	.	4r	.	4bb-/	4r	.	4d/	4B-\	.	4ee\	4cc\	.	4r	4r	.	4r	.	4b-\	.	4r	.	2ryy	4r	.
4ddd/	4bb-\	.	4r	.	4b-/	4r	.	4d/	4B-\	.	4ee\	4cc\	.	4r	4r	.	4r	.	4b-\	.	4r	.	.	4r	.
=36	=36	=36	=36	=36	=36	=36	=36	=36	=36	=36	=36	=36	=36	=36	=36	=36	=36	=36	=36	=36	=36	=36	=36	=36	=36
!	!	!	!	!	! (32ccP/LLL	!	!	!	!	!	!	!	!	!	!	!	!	!	! (32ccP/LLL	!	!	!	!	!	!
!	!	!	!	!	! 32b-P/	!	!	!	!	!	!	!	!	!	!	!	!	!	! 32b-P/	!	!	!	!	!	!
!	!	!	!	!	! 32aP/JJJ	!	!	!	!	!	!	!	!	!	!	!	!	!	! 32aP/JJJ	!	!	!	!	!	!
4ddd/	4bb-\	.	4BB-/	.	4b-p/)	4dd\	.	4d/	4B-\	.	4ee\	4cc\	.	4cc/	4e/	.	4BB/	.	4b-p\)	.	4f/ 4d/	.	4d/	4B-\	.
4bb-/	4ff\	.	4r	.	4dd/	4r	.	4B-/	4F\	.	4cc/	4e/	.	4r	4r	.	4r	.	4dd\	.	4r	.	2ryy	4r	.
4bb-/	4ff\	.	4r	.	4dd/	4b-\	.	4f/	4d\	.	4cc/	4e/	.	4r	4r	.	4r	.	4dd\	.	4r	.	.	4r	.
=37	=37	=37	=37	=37	=37	=37	=37	=37	=37	=37	=37	=37	=37	=37	=37	=37	=37	=37	=37	=37	=37	=37	=37	=37	=37
!	!	!	!	!	! (32ee-P/LLL	!	!	!	!	!	!	!	!	!	!	!	!	!	! (32ee-P/LLL	!	! (32ccP/LLL	!	!	!	!
!	!	!	!	!	! 32ddP/	!	!	!	!	!	!	!	!	!	!	!	!	!	! 32ddP/	!	! 32b-P/	!	!	!	!
!	!	!	!	!	! 32ccP/JJJ	!	!	!	!	!	!	!	!	!	!	!	!	!	! 32ccP/JJJ	!	! 32aP/JJJ	!	!	!	!
4bb-/	4ff\	.	4BB-/	.	4ddp/)	4b-\	.	4f/	4d\	.	4cc/	4c/	.	4cc/	4c/	.	4BB/	.	4ddp\)	.	4b-p\)	.	2d/	2B-\	.
4ff/	4dd\	.	4BB-/	.	4ff/	4dd\	.	4d/	4B-\	.	4cc/	4c/	.	4cc/	4c/	.	8BB/L	.	4ff\	.	4dd\	.	.	.	.
.	.	.	.	.	.	.	.	.	.	.	.	.	.	.	.	.	8BB/	.	.	.	.	.	.	.	.
8bb-/L	8gg\L	.	4BB-/	.	8bb-/L	8gg\L	.	4g/	4e-\	.	4cc/	4c/	.	4cc/	4c/	.	8BB/	.	8bb-\L	.	8gg\L	.	4ryy	8e-\L	.
8gg/J	8ee-\J	.	.	.	8gg/J	8ee-\J	.	.	.	.	.	.	.	.	.	.	8BB/J	.	8gg\J	.	8ee-\J	.	.	8g\J	.
=38	=38	=38	=38	=38	=38	=38	=38	=38	=38	=38	=38	=38	=38	=38	=38	=38	=38	=38	=38	=38	=38	=38	=38	=38	=38
2ff/	2dd\	.	2BB-/	.	2ff/	2dd\	.	2f/	2d\	.	4cc/	4c/	.	4cc/	4c/	.	4BB/	.	2ff\	.	2dd\	.	2b-\	2ryy	.
.	.	.	.	.	.	.	.	.	.	.	4r	4r	.	4r	4r	.	4r	.	.	.	.	.	.	.	.
4r	4ryy	.	4r	.	4gg/	4ee-\	.	4g/	4e-\	.	4r	4r	.	4r	4r	.	4r	.	(8gg\L	.	(8gg\L	.	4g/	4e-\	.
.	.	.	.	.	.	.	.	.	.	.	.	.	.	.	.	.	.	.	8ee-\J)	.	8ee-\J)	.	.	.	.
=39	=39	=39	=39	=39	=39	=39	=39	=39	=39	=39	=39	=39	=39	=39	=39	=39	=39	=39	=39	=39	=39	=39	=39	=39	=39
2.r	2.r	.	2.r	.	(4ff/	(4dd\	.	(4f/	(4d\	.	2.r	2.r	.	2.r	2.r	.	2.r	.	(8ff\L	.	(8ff\L	.	(4f/	(4d\	.
.	.	.	.	.	.	.	.	.	.	.	.	.	.	.	.	.	.	.	8dd\)	.	8dd\)	.	.	.	.
.	.	.	.	.	4ee-/	4cc\	.	4e-/	4c\	.	.	.	.	.	.	.	.	.	(8ee-\	.	(8ee-\	.	4e-/	4c\	.
.	.	.	.	.	.	.	.	.	.	.	.	.	.	.	.	.	.	.	8cc\)	.	8cc\)	.	.	.	.
.	.	.	.	.	4dd/)	4bn\)	.	4d/)	4Bn\)	.	.	.	.	.	.	.	.	.	(8dd\	.	(8dd\	.	4d/)	4Bn\)	.
.	.	.	.	.	.	.	.	.	.	.	.	.	.	.	.	.	.	.	8bn\J)	.	8bn\J)	.	.	.	.
=40	=40	=40	=40	=40	=40	=40	=40	=40	=40	=40	=40	=40	=40	=40	=40	=40	=40	=40	=40	=40	=40	=40	=40	=40	=40
2.r	2.r	.	4r	.	4ee-'/	4cc'\	.	4e-'/	4c'\	.	2.r	2.r	.	2.r	2.r	.	2.r	.	4cc'\	.	4cc'\	.	4e-'/	4c'\	.
.	.	.	4r	.	4ee-'/	4cc'\	.	4e-'/	4c'\	.	.	.	.	.	.	.	.	.	4cc'\	.	4cc'\	.	4e-'/	4c'\	.
.	.	.	(8C/L	.	4ee-/	4g\	.	4g/	4e-\	.	.	.	.	.	.	.	.	.	(8ee-\L	.	(8g/L	.	4g/	4e-\	.
.	.	.	8D/J)	.	.	.	.	.	.	.	.	.	.	.	.	.	.	.	8cc\J)	.	8e-/J)	.	.	.	.
=41	=41	=41	=41	=41	=41	=41	=41	=41	=41	=41	=41	=41	=41	=41	=41	=41	=41	=41	=41	=41	=41	=41	=41	=41	=41
2.r	2.r	.	4E-'\	.	(4dd/	(4f\	.	(4f/	(4d\	.	2.r	2.r	.	2.r	2.r	.	2.r	.	(8dd\L	.	(8f/L	.	(4f/	(4d\	.
.	.	.	.	.	.	.	.	.	.	.	.	.	.	.	.	.	.	.	8b-\)	.	8d/)	.	.	.	.
.	.	.	4E-'\	.	4cc/	4e-\	.	4e-/	4c\	.	.	.	.	.	.	.	.	.	(8cc\	.	(8e-/	.	4e-/	4c\	.
.	.	.	.	.	.	.	.	.	.	.	.	.	.	.	.	.	.	.	8a\)	.	8c/)	.	.	.	.
.	.	.	4En'\	.	4b-/)	4d\)	.	4d/)	4B-\)	.	.	.	.	.	.	.	.	.	(8b-\	.	(8d/	.	4d/)	4B-\)	.
.	.	.	.	.	.	.	.	.	.	.	.	.	.	.	.	.	.	.	8g\J)	.	8B-/J)	.	.	.	.
*	*	*	*	*	*	*	*	*	*clefF4	*	*	*	*	*	*	*	*	*	*	*	*	*	*	*	*
=42	=42	=42	=42	=42	=42	=42	=42	=42	=42	=42	=42	=42	=42	=42	=42	=42	=42	=42	=42	=42	=42	=42	=42	=42	=42
4r	4ryy	.	4F'\	.	4f/	4f\	.	4F'/	4F'\	.	4r	4ryy	.	2.r	2.r	.	2.r	.	4f'/	.	4f'/	.	4f'/	4F'\	.
4r	4ryy	.	4F'\	.	4r	4ryy	.	4F'/	4F'\	.	4r	4ryy	.	.	.	.	.	.	4f'/	.	4f'/	.	4f'/	4F'\	.
*	*	*	*	*	*	*	*	*clefC4	*	*	*	*	*	*	*	*	*	*	*	*	*	*	*	*	*
4fff/	4ddd\	.	4r	.	4f/	4r	.	4f/	4d\	.	4g/	4e\	.	.	.	.	.	.	4fz/	z	4r	.	4ryy	4r	.
=43	=43	=43	=43	=43	=43	=43	=43	=43	=43	=43	=43	=43	=43	=43	=43	=43	=43	=43	=43	=43	=43	=43	=43	=43	=43
!	!	!	!	!	! (32gP/LLL	!	!	!	!	!	!	!	!	!	!	!	!	!	! (32gP/LLL	!	!	!	!	!	!
!	!	!	!	!	! 32fP/	!	!	!	!	!	!	!	!	!	!	!	!	!	! 32fP/	!	!	!	!	!	!
!	!	!	!	!	! 32eP/JJJ	!	!	!	!	!	!	!	!	!	!	!	!	!	! 32eP/JJJ	!	!	!	!	!	!
4fff/	4ddd\	.	4BB-/	.	4fp/)	4d\	.	4f/	4d\	.	4g/	2e\	.	4cc/	4e/	.	4BB/	.	4fp/)	.	4d/ 4B-/	.	4d/	4B-\	.
4ddd/	4bb-\	.	4r	.	4b-/	4r	.	4d/	4B-\	.	4cc/	.	.	4r	4r	.	4r	.	4b-\	.	4r	.	2ryy	4r	.
4ddd/	4bb-\	.	4r	.	4b-/	4r	.	4d/	4B-\	.	4cc/	4cc\	.	4r	4r	.	4r	.	4b-\	.	4r	.	.	4r	.
=44	=44	=44	=44	=44	=44	=44	=44	=44	=44	=44	=44	=44	=44	=44	=44	=44	=44	=44	=44	=44	=44	=44	=44	=44	=44
!	!	!	!	!	! (32ccP/LLL	!	!	!	!	!	!	!	!	!	!	!	!	!	! (32ccP/LLL	!	!	!	!	!	!
!	!	!	!	!	! 32b-P/	!	!	!	!	!	!	!	!	!	!	!	!	!	! 32b-P/	!	!	!	!	!	!
!	!	!	!	!	! 32aP/JJJ	!	!	!	!	!	!	!	!	!	!	!	!	!	! 32aP/JJJ	!	!	!	!	!	!
4ddd/	4bb-\	.	4BB-/	.	4b-p/)	4f\	.	4d/	4B-\	.	4cc/	2cc\	.	4cc/	4e/	.	4BB/	.	4b-p\)	.	4f/ 4d/	.	4d/	4B-\	.
4bb-/	4ff\	.	4r	.	4dd/	4r	.	4B-/	4F\	.	4ee/	.	.	4r	4r	.	4r	.	4dd\	.	4r	.	2ryy	4r	.
4ff/	4dd\	.	4r	.	4dd/	4b-\	.	4f/	4d\	.	4ee/	4cc\	.	4r	4r	.	4r	.	4dd\	.	4r	.	.	4r	.
=45	=45	=45	=45	=45	=45	=45	=45	=45	=45	=45	=45	=45	=45	=45	=45	=45	=45	=45	=45	=45	=45	=45	=45	=45	=45
!	!	!	!	!	! (32ee-P/LLL	!	!	!	!	!	!	!	!	!	!	!	!	!	! (32ee-P/LLL	!	! (32ccP/LLL	!	!	!	!
!	!	!	!	!	! 32ddP/	!	!	!	!	!	!	!	!	!	!	!	!	!	! 32ddP/	!	! 32b-P/	!	!	!	!
!	!	!	!	!	! 32ccP/JJJ	!	!	!	!	!	!	!	!	!	!	!	!	!	! 32ccP/JJJ	!	! 32aP/JJJ	!	!	!	!
4ff/	4dd\	.	4BB-/	.	4ddp/)	4b-\	.	4f/	4d\	.	4ee/	2cc\	.	4cc/	4e/	.	16BB/LL	.	4ddp\)	.	4b-p\)	.	2d/	2B-\	.
.	.	.	.	.	.	.	.	.	.	.	.	.	.	.	.	.	16BB/	.	.	.	.	.	.	.	.
.	.	.	.	.	.	.	.	.	.	.	.	.	.	.	.	.	16BB/	.	.	.	.	.	.	.	.
.	.	.	.	.	.	.	.	.	.	.	.	.	.	.	.	.	16BB/	.	.	.	.	.	.	.	.
4dd/	4b-\	.	4BB-/	.	4ff/	4dd\	.	4d/	4B-\	.	8gg/L	.	.	4cc/	4c/	.	16BB/	.	4ff\	.	4dd\	.	.	.	.
.	.	.	.	.	.	.	.	.	.	.	.	.	.	.	.	.	16BB/	.	.	.	.	.	.	.	.
.	.	.	.	.	.	.	.	.	.	.	8ee/J	.	.	.	.	.	16BB/	.	.	.	.	.	.	.	.
.	.	.	.	.	.	.	.	.	.	.	.	.	.	.	.	.	16BB/	.	.	.	.	.	.	.	.
8bb-/L	8gg\L	.	4BB-/	.	8bb-/L	8gg\L	.	4g/	4e-\	.	4cc/	4c\	.	4cc/	4c/	.	16BB/	.	8bb-\L	.	8gg\L	.	4ryy	8e-\L	.
.	.	.	.	.	.	.	.	.	.	.	.	.	.	.	.	.	16BB/	.	.	.	.	.	.	.	.
8gg/J	8ee-\J	.	.	.	8gg/J	8ee-\J	.	.	.	.	.	.	.	.	.	.	16BB/	.	8gg\J	.	8ee-\J	.	.	8g\J	.
.	.	.	.	.	.	.	.	.	.	.	.	.	.	.	.	.	16BB/JJ	.	.	.	.	.	.	.	.
=46	=46	=46	=46	=46	=46	=46	=46	=46	=46	=46	=46	=46	=46	=46	=46	=46	=46	=46	=46	=46	=46	=46	=46	=46	=46
2ff/	2dd\	.	2BB-/	.	2ff/	2dd\	.	2f/	2d\	.	4cc/	4c\	.	4cc/	4c/	.	4BB/	.	2ff\	.	2dd\	.	2b-\	2ryy	.
.	.	.	.	.	.	.	.	.	.	.	4r	4ryy	.	4r	4r	.	4r	.	.	.	.	.	.	.	.
4r	4ryy	.	4r	.	4gg/	4ee-\	.	4g/	4e-\	.	4r	4ryy	.	4r	4r	.	4r	.	(8gg\L	.	(8gg\L	.	4g/	4e-\	.
.	.	.	.	.	.	.	.	.	.	.	.	.	.	.	.	.	.	.	8ee-\J)	.	8ee-\J)	.	.	.	.
=47	=47	=47	=47	=47	=47	=47	=47	=47	=47	=47	=47	=47	=47	=47	=47	=47	=47	=47	=47	=47	=47	=47	=47	=47	=47
2.r	2.r	.	2.r	.	(4ff/	(4dd\	.	(4f/	(4d\	.	2.r	2.r	.	2.r	2.r	.	2.r	.	(8ff\L	.	(8ff\L	.	(4f/	(4d\	.
.	.	.	.	.	.	.	.	.	.	.	.	.	.	.	.	.	.	.	8dd\)	.	8dd\)	.	.	.	.
.	.	.	.	.	4ee-/	4cc\	.	4e-/	4c\	.	.	.	.	.	.	.	.	.	(8ee-\	.	(8ee-\	.	4e-/	4c\	.
.	.	.	.	.	.	.	.	.	.	.	.	.	.	.	.	.	.	.	8cc\)	.	8cc\)	.	.	.	.
.	.	.	.	.	4dd/)	4bn\)	.	4d/)	4Bn\)	.	.	.	.	.	.	.	.	.	(8dd\	.	(8dd\	.	4d/)	4Bn\)	.
.	.	.	.	.	.	.	.	.	.	.	.	.	.	.	.	.	.	.	8bn\J)	.	8bn\J)	.	.	.	.
=48	=48	=48	=48	=48	=48	=48	=48	=48	=48	=48	=48	=48	=48	=48	=48	=48	=48	=48	=48	=48	=48	=48	=48	=48	=48
*v	*v	*	*	*	*	*	*	*	*	*	*	*	*	*	*	*	*	*	*	*	*	*	*	*	*
4r	.	4r	.	4ee-'/	4cc'\	.	4e-'/	4c'\	.	2.r	2.r	.	2.r	2.r	.	2.r	.	4cc'\	.	4cc'\	.	4e-'/	4c'\	.
4r	.	4r	.	4ee-'/	4cc'\	.	4e-'/	4c'\	.	.	.	.	.	.	.	.	.	4cc'\	.	4cc'\	.	4e-'/	4c'\	.
! a 2.	!	!	!	!	!	!	!	!	!	!	!	!	!	!	!	!	!	!	!	!	!	!	!	!
*	*	*	*	*	*	*	*clefF4	*	*	*	*	*	*	*	*	*	*	*	*	*	*	*	*	*
4bn'\	.	4F'\	.	4dd'/	4bn'\	.	4F'/	4F'\	.	.	.	.	.	.	.	.	.	(8bn\L	.	4a-'/	.	4f'\	4ryy	.
.	.	.	.	.	.	.	.	.	.	.	.	.	.	.	.	.	.	8dd\J)	.	.	.	.	.	.
=49	=49	=49	=49	=49	=49	=49	=49	=49	=49	=49	=49	=49	=49	=49	=49	=49	=49	=49	=49	=49	=49	=49	=49	=49
*	*	*	*	*	*	*	*	*	*	*	*	*	*	*	*	*	*	*	*	*	*	*v	*v	*
(8cc\L	.	(8E-\L	.	(4ee-/	(4cc\	.	(8E-/L	(8E-\L	.	2.r	2.r	.	2.r	2.r	.	2.r	.	(8cc\L	.	(8g/L	.	(8e-\L	.
8ee-\)	.	8C\)	.	.	.	.	8C/)	8C\)	.	.	.	.	.	.	.	.	.	8ee-\)	.	8e-/)	.	8c\)	.
(8cc\	.	(8E-\	.	4gg/)	4gg\)	.	(8E-/	(8E-\	.	.	.	.	.	.	.	.	.	(8cc\	.	(8g/	.	(8e-\	.
8ee-\J)	.	8C\J)	.	.	.	.	8C/J)	8C\J)	.	.	.	.	.	.	.	.	.	8ee-\)	.	8e-/)	.	8c\J)	.
4a/	.	4F'\	.	4cc'/	4ee-'\	.	4F'/	4F'\	.	.	.	.	.	.	.	.	.	(8a\	.	(8c/	.	4f'\	.
.	.	.	.	.	.	.	.	.	.	.	.	.	.	.	.	.	.	8cc\J)	.	8e-/J)	.	.	.
=50	=50	=50	=50	=50	=50	=50	=50	=50	=50	=50	=50	=50	=50	=50	=50	=50	=50	=50	=50	=50	=50	=50	=50
4b-'\	.	4BB-'/	.	4dd'/	4dd'\	.	4BB-'/	4BB-'\	.	4r	4r	.	4r	4r	.	4r	.	4b-'\	.	4d'/	.	4B-'/	.
4r	.	4r	.	4r	4ryy	.	2ryy	4r	.	4r	4r	.	4r	4r	.	4r	.	4b-'\	.	4r	.	4r	.
!	!	!	!	!	!	!	!	! a 2.	!	!	!	!	!	!	!	!	!	!	!	!	!	!	!
4r	.	4BB-'/	ff	4b-'/	4b-'\	ff	.	4BB-'/	ff	4cc/	4c'/	ff	4cc/	4c'/	ff	4BB'/	ff	4B-'/	ff	4B-'/	ff	4B-'/	ff
=51	=51	=51	=51	=51	=51	=51	=51	=51	=51	=51	=51	=51	=51	=51	=51	=51	=51	=51	=51	=51	=51	=51	=51
*	*	*	*	*	*	*	*v	*v	*	*	*	*	*	*	*	*	*	*	*	*	*	*	*
4r	.	4BB-'/	.	4b-'/	4b-'\	.	4BB-'/	.	4cc\	4c'/	.	4cc/	4c'/	.	4BB'/	.	4B-'/	.	4B-'/	.	4B-'/	.
4r	.	4BB-'/	.	4b-'/	4b-'\	.	4BB-'/	.	4cc\	4c'/	.	4cc/	4c'/	.	4BB'/	.	4B-'/	.	4B-'/	.	4B-'/	.
(8gg\L	ff	4r	.	4bb-'/	4gg'\	.	4e-'\	.	4r	4r	.	4r	4r	.	4r	.	(8gg\L	.	4b-/ 4e-'/	.	4e-'\	.
8bb-\J)	.	.	.	.	.	.	.	.	.	.	.	.	.	.	.	.	8bb-\J)	.	.	.	.	.
=52	=52	=52	=52	=52	=52	=52	=52	=52	=52	=52	=52	=52	=52	=52	=52	=52	=52	=52	=52	=52	=52	=52
(8ff\L	.	4r	.	4bb-'/	4ff'\	.	4d'\	.	4r	4r	.	4r	4r	.	4r	.	(8ff\L	.	4b-/ 4d'/	.	4d'\	.
8bb-\)	.	.	.	.	.	.	.	.	.	.	.	.	.	.	.	.	8bb-\)	.	.	.	.	.
(8ff\	.	4r	.	4bb-'/	4ff'\	.	4d'\	.	4r	4r	.	4r	4r	.	4r	.	(8ff\	.	4b-/ 4d'/	.	4d'\	.
8bb-\J)	.	.	.	.	.	.	.	.	.	.	.	.	.	.	.	.	8bb-\J)	.	.	.	.	.
4r	.	4BB-'/	.	4b-'/	4b-'\	.	4BB-'/	.	4cc/	4c'/	.	4cc/	4c'/	.	4BB'/	.	4B-'/	.	4B-'/	.	4B-'/	.
=53	=53	=53	=53	=53	=53	=53	=53	=53	=53	=53	=53	=53	=53	=53	=53	=53	=53	=53	=53	=53	=53	=53
4r	.	4BB-'/	.	4b-'/	4b-'\	.	4BB-'/	.	4cc/	4c'/	.	4cc/	4c'/	.	4BB'/	.	4B-'/	.	4B-'/	.	4B-'/	.
4r	.	4BB-'/	.	4b-'/	4b-'\	.	4BB-'/	.	4cc/	4c'/	.	4cc/	4c'/	.	4BB'/	.	4B-'/	.	4B-'/	.	4B-'/	.
(8gg\L	.	4r	.	4bb-'/	4gg'\	.	4e-'\	.	4r	4r	.	4r	4r	.	4r	.	(8gg\L	.	4b-/ 4e-'/	.	4e-'\	.
8bb-\J)	.	.	.	.	.	.	.	.	.	.	.	.	.	.	.	.	8bb-\J)	.	.	.	.	.
=54	=54	=54	=54	=54	=54	=54	=54	=54	=54	=54	=54	=54	=54	=54	=54	=54	=54	=54	=54	=54	=54	=54
(8ff\L	.	4r	.	4bb-'/	4ff'\	.	4d'\	.	4r	4r	.	4r	4r	.	2.r	.	(8ff\L	.	4b-/ 4d'/	.	4d'\	.
8bb-\)	.	.	.	.	.	.	.	.	.	.	.	.	.	.	.	.	8bb-\)	.	.	.	.	.
(8ff\	.	4r	.	4bb-'/	4ff'\	.	4d'\	.	4r	4r	.	4r	4r	.	.	.	(8ff\	.	4b-/ 4d'/	.	4d'\	.
8bb-\J)	.	.	.	.	.	.	.	.	.	.	.	.	.	.	.	.	8bb-\J)	.	.	.	.	.
(8ee-\L	.	4E-\	.	4gg/	4ee-\	.	4e-\	.	4ff\	4dd\	.	4ff\	4dd\	.	.	.	(8ee-\L	.	4g/	.	4e-\	.
8gg\J)	.	.	.	.	.	.	.	.	.	.	.	.	.	.	.	.	8gg\J)	.	.	.	.	.
=55	=55	=55	=55	=55	=55	=55	=55	=55	=55	=55	=55	=55	=55	=55	=55	=55	=55	=55	=55	=55	=55	=55
(8dd\L	.	2F\	.	2ff/	2dd\	.	2f\	.	2ee\	2cc\	.	2ee\	2cc\	.	4FF/	.	(8dd\L	.	(8f/L	.	2f\	.
8ff\)	.	.	.	.	.	.	.	.	.	.	.	.	.	.	.	.	8ff\)	.	8d/)	.	.	.
(8dd\	.	.	.	.	.	.	.	.	.	.	.	.	.	.	8FF/L	.	(8dd\	.	(8f/	.	.	.
8ff\)	.	.	.	.	.	.	.	.	.	.	.	.	.	.	8FF/	.	8ff\)	.	8d/)	.	.	.
(8cc\	.	4FF/	.	(8ee-/L	4a\	.	4F\	.	4dd\	4g\	.	4dd\	4g\	.	8FF/	.	(8cc\	.	(8e-/	.	4F/	.
8ee-\J)	.	.	.	8cc/J)	.	.	.	.	.	.	.	.	.	.	8FF/J	.	8ee-\J)	.	8c/J)	.	.	.
=56	=56	=56	=56	=56	=56	=56	=56	=56	=56	=56	=56	=56	=56	=56	=56	=56	=56	=56	=56	=56	=56	=56
4b-\	.	4BB-/	.	4b-/	4b-\	.	4B-\	.	4cc/	4e/	.	4cc/	4e/	.	4BB/	.	4b-\	.	4d/	.	4B-/	.
4r	.	4r	.	4r	4ryy	.	4r	.	4r	4r	.	4r	4r	.	4r	.	4r	.	4r	.	4r	.
4r	.	4r	.	4r	4ryy	.	4B-'\	p	4cc/	4c'/	p	4r	4r	.	4r	.	4r	.	4r	.	4r	.
=57	=57	=57	=57	=57	=57	=57	=57	=57	=57	=57	=57	=57	=57	=57	=57	=57	=57	=57	=57	=57	=57	=57
4r	.	2.r	.	4r	4ryy	.	4B-'\	.	4cc/	4c'/	.	2.r	2.r	.	2.r	.	2.r	.	2.r	.	2.r	.
4r	.	.	.	4r	4ryy	.	4B-'\	.	4cc/	4c'/	.	.	.	.	.	.	.	.	.	.	.	.
(8gg\L	p	.	.	4ee-'/	4b-'\	p	4r	.	4r	4r	.	.	.	.	.	.	.	.	.	.	.	.
8bb-\J)	.	.	.	.	.	.	.	.	.	.	.	.	.	.	.	.	.	.	.	.	.	.
=58	=58	=58	=58	=58	=58	=58	=58	=58	=58	=58	=58	=58	=58	=58	=58	=58	=58	=58	=58	=58	=58	=58
(8ff\L	.	4r	.	4dd'/	4b-'\	.	4r	.	2.r	2.r	.	2.r	2.r	.	2.r	.	4r	.	4r	.	4r	.
8bb-\)	.	.	.	.	.	.	.	.	.	.	.	.	.	.	.	.	.	.	.	.	.	.
(8ff\	.	4r	.	4dd'/	4b-'\	.	4r	.	.	.	.	.	.	.	.	.	4r	.	4r	.	4r	.
8bb-\J)	.	.	.	.	.	.	.	.	.	.	.	.	.	.	.	.	.	.	.	.	.	.
4r	.	4BBn'/	ff	4bn'/	4bn'\	f	4BBn'/	f	.	.	.	.	.	.	.	.	4Bn'/	ff	4Bn'/	ff	4Bn'/	ff
=59	=59	=59	=59	=59	=59	=59	=59	=59	=59	=59	=59	=59	=59	=59	=59	=59	=59	=59	=59	=59	=59	=59
4r	.	4BBn'/	.	4bn'/	4bn'\	.	4BBn'/	.	2.r	2.r	.	2.r	2.r	.	2.r	.	4Bn'/	.	4Bn'/	.	4Bn/	.
4r	.	4BB'/	.	4b'/	4b'\	.	4BB'/	.	.	.	.	.	.	.	.	.	4B'/	.	4B'/	.	4B/	.
(8ff\L	f	4BB/	.	4aa-/	4ff\	.	4BB/	.	.	.	.	.	.	.	.	.	(8ff\L	.	(8f/L	.	4B/	.
8aa-\J)	.	.	.	.	.	.	.	.	.	.	.	.	.	.	.	.	8aa-\J)	.	8a-/J)	.	.	.
=60	=60	=60	=60	=60	=60	=60	=60	=60	=60	=60	=60	=60	=60	=60	=60	=60	=60	=60	=60	=60	=60	=60
(8ee-\L	.	4C/	.	4gg/	4ee-\	.	4C/	.	2.r	2.r	.	2.r	2.r	.	2.r	.	(8ee-\L	.	(8e-/L	.	4c\	.
8gg\)	.	.	.	.	.	.	.	.	.	.	.	.	.	.	.	.	8gg\)	.	8g/)	.	.	.
(8dd\	.	4D\	.	4ff/	4dd\	.	4D\	.	.	.	.	.	.	.	.	.	(8dd\	.	(8d/	.	4d\	.
8ff\)	.	.	.	.	.	.	.	.	.	.	.	.	.	.	.	.	8ff\)	.	8f/)	.	.	.
(8cc\	.	4E-\	.	4ee-/	4cc\	.	4E-\	.	.	.	.	.	.	.	.	.	(8cc\	.	(8c/	.	4e-\	.
8ee-\J)	.	.	.	.	.	.	.	.	.	.	.	.	.	.	.	.	8ee-\J)	.	8e-/J)	.	.	.
=61	=61	=61	=61	=61	=61	=61	=61	=61	=61	=61	=61	=61	=61	=61	=61	=61	=61	=61	=61	=61	=61	=61
2b-\	.	2.F\	.	2dd/	2b-\	.	2.F\	.	(2ee\	(2cc\	f	(2ee\	(2cc\	f	4FF/	f	2b-\	.	2d/	.	2.f\	.
.	.	.	.	.	.	.	.	.	.	.	.	.	.	.	8FF/L	.	.	.	.	.	.	.
.	.	.	.	.	.	.	.	.	.	.	.	.	.	.	8FF/	.	.	.	.	.	.	.
!	!	!	!	!	!	!	!	!	!	!	!	!	!	!	!	!	!	!	! 8fP/	!	!	!
(8cc\L	.	.	.	(8cc/L	4a\	.	.	.	4dd\)	4g\)	.	4dd\)	4g\)	.	8FF/	.	(8cc\L	.	4e-p/	.	.	.
8dd\J)	.	.	.	8dd/J)	.	.	.	.	.	.	.	.	.	.	8FF/J	.	8dd\J)	.	.	.	.	.
=62	=62	=62	=62	=62	=62	=62	=62	=62	=62	=62	=62	=62	=62	=62	=62	=62	=62	=62	=62	=62	=62	=62
4b-\	.	4BB-/	.	4b-/	4b-\	.	4BB-/	.	4cc/	4e/	.	4cc/	4e/	.	4BB/	.	4b-\	.	4d/	.	4B-/	.
4r	.	4r	.	4r	4ryy	.	4r	.	4r	4r	.	4r	4r	.	4r	.	(8bb-\L	.	4r	.	4r	.
.	.	.	.	.	.	.	.	.	.	.	.	.	.	.	.	.	8ff\)	.	.	.	.	.
4r	.	4r	.	4r	4ryy	.	4r	.	4r	4r	.	4r	4r	.	4r	.	(8dd\	.	4r	.	4r	.
.	.	.	.	.	.	.	.	.	.	.	.	.	.	.	.	.	8b-\J)	.	.	.	.	.
=63	=63	=63	=63	=63	=63	=63	=63	=63	=63	=63	=63	=63	=63	=63	=63	=63	=63	=63	=63	=63	=63	=63
2.aan\	.	2.F\	.	2.ee-/	2.cc\	.	2.F\	.	2.dd\	2.g\	.	2.dd\	2.g\	.	16FF/LL	.	2cc\	.	2.a/ 2.e-/	.	2.f\	.
.	.	.	.	.	.	.	.	.	.	.	.	.	.	.	16FF/	.	.	.	.	.	.	.
.	.	.	.	.	.	.	.	.	.	.	.	.	.	.	16FF/	.	.	.	.	.	.	.
.	.	.	.	.	.	.	.	.	.	.	.	.	.	.	16FF/	.	.	.	.	.	.	.
.	.	.	.	.	.	.	.	.	.	.	.	.	.	.	16FF/	.	.	.	.	.	.	.
.	.	.	.	.	.	.	.	.	.	.	.	.	.	.	16FF/	.	.	.	.	.	.	.
.	.	.	.	.	.	.	.	.	.	.	.	.	.	.	16FF/	.	.	.	.	.	.	.
.	.	.	.	.	.	.	.	.	.	.	.	.	.	.	16FF/	.	.	.	.	.	.	.
.	.	.	.	.	.	.	.	.	.	.	.	.	.	.	16FF/	.	(8cc\L	.	.	.	.	.
.	.	.	.	.	.	.	.	.	.	.	.	.	.	.	16FF/	.	.	.	.	.	.	.
.	.	.	.	.	.	.	.	.	.	.	.	.	.	.	16FF/	.	8dd\J)	.	.	.	.	.
.	.	.	.	.	.	.	.	.	.	.	.	.	.	.	16FF/JJ	.	.	.	.	.	.	.
=64	=64	=64	=64	=64	=64	=64	=64	=64	=64	=64	=64	=64	=64	=64	=64	=64	=64	=64	=64	=64	=64	=64
4bb-\	.	4BB-/	.	4dd/	4dd\	.	4B-\	.	4ee\	4cc\	.	4ee\	4cc\	.	4BB/	.	4b-\	.	4b-/ 4d/	.	4B-/	.
4r	.	4r	.	4r	4ryy	.	4r	.	4r	4r	.	4r	4r	.	4r	.	(8ddd\L	.	4r	.	4r	.
.	.	.	.	.	.	.	.	.	.	.	.	.	.	.	.	.	8bb-\)	.	.	.	.	.
4r	.	4r	.	4r	4ryy	.	4r	.	4r	4r	.	4r	4r	.	4r	.	(8ff\	.	4r	.	4r	.
.	.	.	.	.	.	.	.	.	.	.	.	.	.	.	.	.	8dd\J)	.	.	.	.	.
=65	=65	=65	=65	=65	=65	=65	=65	=65	=65	=65	=65	=65	=65	=65	=65	=65	=65	=65	=65	=65	=65	=65
2.aa\	.	2.F\	.	2.ee-/	2.cc\	.	2.F\	.	2.dd\	2.g\	.	2.dd\	2.g\	.	16FF/LL	.	2cc\	.	2.a/ 2.e-/	.	2.f\	.
.	.	.	.	.	.	.	.	.	.	.	.	.	.	.	16FF/	.	.	.	.	.	.	.
.	.	.	.	.	.	.	.	.	.	.	.	.	.	.	16FF/	.	.	.	.	.	.	.
.	.	.	.	.	.	.	.	.	.	.	.	.	.	.	16FF/	.	.	.	.	.	.	.
.	.	.	.	.	.	.	.	.	.	.	.	.	.	.	16FF/	.	.	.	.	.	.	.
.	.	.	.	.	.	.	.	.	.	.	.	.	.	.	16FF/	.	.	.	.	.	.	.
.	.	.	.	.	.	.	.	.	.	.	.	.	.	.	16FF/	.	.	.	.	.	.	.
.	.	.	.	.	.	.	.	.	.	.	.	.	.	.	16FF/	.	.	.	.	.	.	.
.	.	.	.	.	.	.	.	.	.	.	.	.	.	.	16FF/	.	(8cc\L	.	.	.	.	.
.	.	.	.	.	.	.	.	.	.	.	.	.	.	.	16FF/	.	.	.	.	.	.	.
.	.	.	.	.	.	.	.	.	.	.	.	.	.	.	16FF/	.	8dd\J)	.	.	.	.	.
.	.	.	.	.	.	.	.	.	.	.	.	.	.	.	16FF/JJ	.	.	.	.	.	.	.
=66	=66	=66	=66	=66	=66	=66	=66	=66	=66	=66	=66	=66	=66	=66	=66	=66	=66	=66	=66	=66	=66	=66
4bb-\	.	4BB-/	.	4dd/	4dd\	.	4BB-/	.	4cc/	4e/	.	4cc/	4e/	.	4BB/	.	4b-\	.	4b-/ 4d/	.	4B-/	.
4r	.	4r	.	4r	4ryy	.	4r	.	4r	4r	.	4r	4r	.	4r	.	4r	.	4r	.	4r	.
=:!!:	=:!!:	=:!!:	=:!!:	=:!!:	=:!!:	=:!!:	=:!!:	=:!!:	=:!!:	=:!!:	=:!!:	=:!!:	=:!!:	=:!!:	=:!!:	=:!!:	=:!!:	=:!!:	=:!!:	=:!!:	=:!!:	=:!!:
*>C	*	*>C	*	*>C	*	*	*	*	*	*	*	*	*	*	*>C	*	*>C	*	*>C	*	*>C	*
*M3/4	*	*M3/4	*	*M3/4	*	*	*	*	*	*	*	*	*	*	*M3/4	*	*M3/4	*	*M3/4	*	*M3/4	*
! Trio	!	!	!	! I.	!	!	!	!	!	!	!	!	!	!	!	!	!	!	!	!	!	!
*	*	*	*	*	*	*	*^	*	*	*	*	*	*	*	*	*	*	*	*	*	*	*
*	*	*	*	*	*	*	*>C	*	*	*	*	*	*	*	*	*	*	*	*	*	*	*	*
*	*	*	*	*	*	*	*M3/4	*	*	*	*	*	*	*	*	*	*	*	*	*	*	*	*
!	!	!	!	!	!	!	! I.	!	!	!	!	!	!	!	!	!	!	!	!	!	!	!	!
!	!	!	!	!	!	!	!	!	!	!	!	!	!	!	!	!	!	!	!	!	!	!	!
*	*	*	*	*	*	*	*	*	*	*v	*v	*	*	*	*	*	*	*	*	*	*	*	*
*	*	*	*	*	*	*	*	*	*	*>C	*	*	*	*	*	*	*	*	*	*	*	*
*	*	*	*	*	*	*	*	*	*	*M3/4	*	*	*	*	*	*	*	*	*	*	*	*
*	*	*	*	*	*	*	*	*	*	*	*	*v	*v	*	*	*	*	*	*	*	*	*
*	*	*	*	*	*	*	*	*	*	*	*	*>C	*	*	*	*	*	*	*	*	*
*	*	*	*	*	*	*	*	*	*	*	*	*M3/4	*	*	*	*	*	*	*	*	*
4r	.	4r	.	4f'/	4r	p	4F'/	4r	p	4r	.	4r	.	4r	.	4f'/	p	4r	.	4r	.
2ryy	.	2ryy	.	2ryy	2ryy	.	2ryy	2ryy	.	2ryy	.	2ryy	.	2ryy	.	2ryy	.	2ryy	.	2ryy	.
=67	=67	=67	=67	=67	=67	=67	=67	=67	=67	=67	=67	=67	=67	=67	=67	=67	=67	=67	=67	=67	=67
*^	*	*	*	*	*	*	*	*	*	*^	*	*^	*	*	*	*	*	*	*	*	*
2.r	2.r	.	4BB-/	p	2.b-/	2.r	.	2.B-/	2.r	.	2.r	2.r	.	2.r	2.r	.	2.r	.	2.d/	.	2.r	.	2.r	.
.	.	.	4BB-/	.	.	.	.	.	.	.	.	.	.	.	.	.	.	.	.	.	.	.	.	.
.	.	.	4BB-/	.	.	.	.	.	.	.	.	.	.	.	.	.	.	.	.	.	.	.	.	.
=68	=68	=68	=68	=68	=68	=68	=68	=68	=68	=68	=68	=68	=68	=68	=68	=68	=68	=68	=68	=68	=68	=68	=68	=68
2.r	2.r	.	4BB-/	.	(4a/	2.r	.	(4A/	2.r	.	2.r	2.r	.	2.r	2.r	.	2.r	.	(4c/	.	2.r	.	2.r	.
.	.	.	4BB-/	.	4b-/	.	.	4B-/	.	.	.	.	.	.	.	.	.	.	4d/	.	.	.	.	.
.	.	.	4BB-/	.	4cc/)	.	.	4c/)	.	.	.	.	.	.	.	.	.	.	4e-/)	.	.	.	.	.
=69	=69	=69	=69	=69	=69	=69	=69	=69	=69	=69	=69	=69	=69	=69	=69	=69	=69	=69	=69	=69	=69	=69	=69	=69
2.r	2.r	.	4BB-/	.	(2cc#z/	2.r	z	(2c#z/xx	2.r	z	2.r	2.r	.	2.r	2.r	.	2.r	.	(2enz/xx	z	2.r	.	2.r	.
.	.	.	4r	.	.	.	.	.	.	.	.	.	.	.	.	.	.	.	.	.	.	.	.	.
.	.	.	4r	.	4dd/)	.	.	4d/)	.	.	.	.	.	.	.	.	.	.	4f/)	.	.	.	.	.
=70	=70	=70	=70	=70	=70	=70	=70	=70	=70	=70	=70	=70	=70	=70	=70	=70	=70	=70	=70	=70	=70	=70	=70	=70
2.r	2.r	.	(4BB-/	.	4b-/	2.r	.	4B-/	2.r	.	2.r	2.r	.	2.r	2.r	.	2.r	.	4d/	.	4r	.	(4D/	p
.	.	.	4C/	.	4r	.	.	4r	.	.	.	.	.	.	.	.	.	.	4r	.	4r	.	4E-/	.
.	.	.	4D/)	.	4ff'/	.	.	4f'/	.	.	.	.	.	.	.	.	.	.	4B-'/	.	4f'/	p	4F/)	.
=71	=71	=71	=71	=71	=71	=71	=71	=71	=71	=71	=71	=71	=71	=71	=71	=71	=71	=71	=71	=71	=71	=71	=71	=71
2.r	2.r	.	[2.E-\	.	(2ff#z/	2.r	z	(2f#z/xx	2.r	z	2.r	2.r	.	2.r	2.r	.	2.r	.	(2B-/	.	(2A-/	.	[2.E-/	.
.	.	.	.	.	4gg/)	.	.	4g/)	.	.	.	.	.	.	.	.	.	.	4Bn/)	.	4G/)	.	.	.
=72	=72	=72	=72	=72	=72	=72	=72	=72	=72	=72	=72	=72	=72	=72	=72	=72	=72	=72	=72	=72	=72	=72	=72	=72
2.r	2.r	.	(2E-\]	.	&(4ee-/)	2.r	.	&(4e-/)	2.r	.	2.r	2.r	.	2.r	2.r	.	2.r	.	[2.c/	.	(2.g/	.	(2E-/]	.
.	.	.	.	.	4dd/	.	.	4d/	.	.	.	.	.	.	.	.	.	.	.	.	.	.	.	.
.	.	.	4En\	.	4cc/&)	.	.	4c/&)	.	.	.	.	.	.	.	.	.	.	.	.	.	.	4En/	.
=73	=73	=73	=73	=73	=73	=73	=73	=73	=73	=73	=73	=73	=73	=73	=73	=73	=73	=73	=73	=73	=73	=73	=73	=73
2.r	2.r	.	2F\)	.	(4b-/	2.r	.	(4B-/	2.r	.	2.r	2.r	.	2.r	2.r	.	2.r	.	2c/]	.	4c/)	.	4F/)	.
.	.	.	.	.	4a/	.	.	4A/	.	.	.	.	.	.	.	.	.	.	.	.	4r	.	4r	.
.	.	.	4r	.	4g/)	.	.	4G/)	.	.	.	.	.	.	.	.	.	.	4r	.	4r	.	4r	.
=74	=74	=74	=74	=74	=74	=74	=74	=74	=74	=74	=74	=74	=74	=74	=74	=74	=74	=74	=74	=74	=74	=74	=74	=74
(2.fff/	(2.fff\	pp	2.r	.	(4f/	2.r	.	(4F/	2.r	.	2.r	2.r	.	2.r	2.r	.	2.r	.	2.e-/	.	(2.c/	.	(4A/	.
.	.	.	.	.	4g/	.	.	4G/	.	.	.	.	.	.	.	.	.	.	.	.	.	.	4G/	.
.	.	.	.	.	4a/)	.	.	4A/)	.	.	.	.	.	.	.	.	.	.	.	.	.	.	4F/)	.
=75	=75	=75	=75	=75	=75	=75	=75	=75	=75	=75	=75	=75	=75	=75	=75	=75	=75	=75	=75	=75	=75	=75	=75	=75
4ddd/)	4ddd\)	.	4BB-/	.	2.b-/	2.r	.	2.B-/	2.r	.	2.r	2.r	.	2.r	2.r	.	2.r	.	2.d/	.	4d/)	.	2F/	.
4r	4ryy	.	4BB-/	.	.	.	.	.	.	.	.	.	.	.	.	.	.	.	.	.	4r	.	.	.
4r	4ryy	.	4BB-/	.	.	.	.	.	.	.	.	.	.	.	.	.	.	.	.	.	4r	.	4r	.
=76	=76	=76	=76	=76	=76	=76	=76	=76	=76	=76	=76	=76	=76	=76	=76	=76	=76	=76	=76	=76	=76	=76	=76	=76
2.r	2.r	.	4BB-/	.	(4a/	2.r	.	(4A/	2.r	.	2.r	2.r	.	2.r	2.r	.	2.r	.	(4c/	.	2.r	.	2.r	.
.	.	.	4BB-/	.	4b-/	.	.	4B-/	.	.	.	.	.	.	.	.	.	.	4d/	.	.	.	.	.
.	.	.	4BB-/	.	4cc/)	.	.	4c/)	.	.	.	.	.	.	.	.	.	.	4e-/)	.	.	.	.	.
=77	=77	=77	=77	=77	=77	=77	=77	=77	=77	=77	=77	=77	=77	=77	=77	=77	=77	=77	=77	=77	=77	=77	=77	=77
2.r	2.r	.	4BB-/	.	(2cc#z/	2.r	z	(2c#z/xx	2.r	z	2.r	2.r	.	2.r	2.r	.	2.r	.	(2enz/xx	z	2.r	.	2.r	.
.	.	.	4r	.	.	.	.	.	.	.	.	.	.	.	.	.	.	.	.	.	.	.	.	.
.	.	.	4r	.	4dd/)	.	.	4d/)	.	.	.	.	.	.	.	.	.	.	4f/)	.	.	.	.	.
=78	=78	=78	=78	=78	=78	=78	=78	=78	=78	=78	=78	=78	=78	=78	=78	=78	=78	=78	=78	=78	=78	=78	=78	=78
2.r	2.r	.	2.A-\	.	(4b-/	2.r	.	(4B-/	2.r	.	2.r	2.r	.	2.r	2.r	.	2.r	.	(4d/	.	(4f/	.	2.r	.
.	.	.	.	.	4ccn/	.	.	4cn/	.	.	.	.	.	.	.	.	.	.	4e-/	.	4e-/	.	.	.
.	.	.	.	.	4dd/)	.	.	4d/)	.	.	.	.	.	.	.	.	.	.	4f/)	.	4d/)	.	.	.
=79	=79	=79	=79	=79	=79	=79	=79	=79	=79	=79	=79	=79	=79	=79	=79	=79	=79	=79	=79	=79	=79	=79	=79	=79
2.r	2.r	.	(4G\	.	(4ee-/	2.r	.	(4e-/	2.r	.	2.r	2.r	.	2.r	2.r	.	2.r	.	[2.B-/	.	4b-\	.	2.r	.
.	.	.	4G-\	.	4een/	.	.	4en/	.	.	.	.	.	.	.	.	.	.	.	.	4r	.	.	.
.	.	.	4F\)	.	4ff/)	.	.	4f/)	.	.	.	.	.	.	.	.	.	.	.	.	4r	.	.	.
=80	=80	=80	=80	=80	=80	=80	=80	=80	=80	=80	=80	=80	=80	=80	=80	=80	=80	=80	=80	=80	=80	=80	=80	=80
2.r	2.r	.	2.En\	.	2.ggz/	2.r	z	2.gz/xx	2.r	z	2.r	2.r	.	2.r	2.r	.	2.r	.	2.B-/]	.	2.d-/	.	2.r	.
=81	=81	=81	=81	=81	=81	=81	=81	=81	=81	=81	=81	=81	=81	=81	=81	=81	=81	=81	=81	=81	=81	=81	=81	=81
(2.fff/xx	(2.fff\xx	pp	2.F\	.	(4f/	2.r	p	(4F/	2.r	p	2.r	2.r	.	2.r	2.r	.	2.r	.	2.e-/	.	2.c/	.	(4A/	.
.	.	.	.	.	4g/	.	.	4G/	.	.	.	.	.	.	.	.	.	.	.	.	.	.	4G/	.
.	.	.	.	.	4a/)	.	.	4A/)	.	.	.	.	.	.	.	.	.	.	.	.	.	.	4F/)	.
=82	=82	=82	=82	=82	=82	=82	=82	=82	=82	=82	=82	=82	=82	=82	=82	=82	=82	=82	=82	=82	=82	=82	=82	=82
*	*	*	*	*	*	*	*	*	*	*	*v	*v	*	*	*	*	*	*	*	*	*	*	*	*
*	*	*	*	*	*	*	*	*	*	*	*	*	*v	*v	*	*	*	*	*	*	*	*	*
4ddd/)	4ddd\)	.	4BB-/	.	4b-/	4r	.	4B-/	4r	.	4r	.	4r	.	4r	.	4d/	.	4B-/	.	4F/	.
4r	4ryy	.	4r	.	4r	4r	.	4r	4r	.	4r	.	4r	.	4r	.	4r	.	4r	.	4r	.
=:!!:	=:!!:	=:!!:	=:!!:	=:!!:	=:!!:	=:!!:	=:!!:	=:!!:	=:!!:	=:!!:	=:!!:	=:!!:	=:!!:	=:!!:	=:!!:	=:!!:	=:!!:	=:!!:	=:!!:	=:!!:	=:!!:	=:!!:
*v	*v	*	*	*	*	*	*	*	*	*	*	*	*	*	*	*	*	*	*	*	*	*
*>D	*	*>D	*	*>D	*	*	*	*	*	*>D	*	*>D	*	*>D	*	*>D	*	*>D	*	*>D	*
*	*	*	*	*	*	*	*v	*v	*	*	*	*	*	*	*	*	*	*	*	*	*
*	*	*	*	*	*	*	*>D	*	*	*	*	*	*	*	*	*	*	*	*	*
4r	.	4r	.	4cc'/xx	4b-'\	p	4r	.	4r	.	4r	.	4r	.	4r	.	4r	.	4r	.
2ryy	.	2ryy	.	2ryy	2ryy	.	2ryy	.	2ryy	.	2ryy	.	2ryy	.	2ryy	.	2ryy	.	2ryy	.
=83	=83	=83	=83	=83	=83	=83	=83	=83	=83	=83	=83	=83	=83	=83	=83	=83	=83	=83	=83	=83
*^	*	*	*	*	*	*	*^	*	*^	*	*^	*	*	*	*	*	*	*	*	*
! Bf5 in Pleyel	!	!	!	!	!	!	!	!	!	!	!	!	!	!	!	!	!	!	!	!	!	!	!	!
!	!	!	!	!	!	!	!	!	!	!	!	!	!	!	!	!	!	!	!	!	!	!	!	!
(2.ccc/xx	(2.ccc\xx	pp	2.r	.	(4cc/	(4b-\	.	2.r	2.r	.	2.r	2.r	.	2.r	2.r	.	2.r	.	2.r	.	2.r	.	2.r	.
.	.	.	.	.	4dd/	4a\	.	.	.	.	.	.	.	.	.	.	.	.	.	.	.	.	.	.
.	.	.	.	.	4een/)	4g\)	.	.	.	.	.	.	.	.	.	.	.	.	.	.	.	.	.	.
=84	=84	=84	=84	=84	=84	=84	=84	=84	=84	=84	=84	=84	=84	=84	=84	=84	=84	=84	=84	=84	=84	=84	=84	=84
4aa/)	4aa\)	.	2.r	.	[2.ff/	[2.f\	.	4r	2.r	.	2.r	2.r	.	2.r	2.r	.	2.r	.	4r	.	4r	.	4r	.
4r	4ryy	.	.	.	.	.	.	4r	.	.	.	.	.	.	.	.	.	.	4r	.	4r	.	4r	.
4r	4ryy	.	.	.	.	.	.	4e-'/xx	.	p	.	.	.	.	.	.	.	.	4cc'\xx	p	4a'/xx	p	4e-'\xx	p
=85	=85	=85	=85	=85	=85	=85	=85	=85	=85	=85	=85	=85	=85	=85	=85	=85	=85	=85	=85	=85	=85	=85	=85	=85
!	!	!	!	!	!	!	!	!	!	!	! The following G4 and E4 do not appear in Pleyel.	!	!	!	!	!	!	!	!	!	!	!	!	!
2.r	2.r	.	2.r	.	2.ff/_	2.f\]	.	(4e-/	2.r	.	(2.g/xx	(2.g\	p	2.r	2.r	.	2.r	.	(4cc\	.	(4a/	.	(4e-\	.
.	.	.	.	.	.	.	.	4d/	.	.	.	.	.	.	.	.	.	.	4dd\	.	4b-\	.	4d\	.
.	.	.	.	.	.	.	.	4c/)	.	.	.	.	.	.	.	.	.	.	4ee-\)	.	4cc\)	.	4c\)	.
=86	=86	=86	=86	=86	=86	=86	=86	=86	=86	=86	=86	=86	=86	=86	=86	=86	=86	=86	=86	=86	=86	=86	=86	=86
2.r	2.r	.	4r	.	2ff/]	[2.b-\	.	2B-/	2.r	.	4e/)	4e\)	.	2.r	2.r	.	2.r	.	2dd\	.	2dd\	.	2B-/	.
.	.	.	4r	.	.	.	.	.	.	.	4r	4ryy	.	.	.	.	.	.	.	.	.	.	.	.
.	.	.	4A-'\xx	p	4ff/	.	.	4r	.	.	4r	4ryy	.	.	.	.	.	.	4dd'\	.	4b-'\	.	4f'\	.
=87	=87	=87	=87	=87	=87	=87	=87	=87	=87	=87	=87	=87	=87	=87	=87	=87	=87	=87	=87	=87	=87	=87	=87	=87
(2.bb-/	(2.bb-\	pp	(4A-\	.	(4ff/	2.b-\_	.	2.r	2.r	.	2.r	2.r	.	2.r	2.r	.	2.r	.	(4dd\	.	(2.b-\	.	(4f\	.
.	.	.	4G\	.	4gg/	.	.	.	.	.	.	.	.	.	.	.	.	.	4ee-\	.	.	.	4e-\	.
.	.	.	4F\)	.	4aa-/)	.	.	.	.	.	.	.	.	.	.	.	.	.	4ff\)	.	.	.	4d\)	.
=88	=88	=88	=88	=88	=88	=88	=88	=88	=88	=88	=88	=88	=88	=88	=88	=88	=88	=88	=88	=88	=88	=88	=88	=88
4gg/)	4gg\)	.	[2.E-\	.	(2bb-/	4b-\]	.	2.r	2.r	.	2.r	2.r	.	2.r	2.r	.	2.r	.	(2gg\	.	&(2b-\)	.	(2B-/	.
4r	4ryy	.	.	.	.	4r	.	.	.	.	.	.	.	.	.	.	.	.	.	.	.	.	.	.
4r	4ryy	.	.	.	4gg/)	4r	.	.	.	.	.	.	.	.	.	.	.	.	4ee-\)	.	4g/&)	.	4Bn/)	.
=89	=89	=89	=89	=89	=89	=89	=89	=89	=89	=89	=89	=89	=89	=89	=89	=89	=89	=89	=89	=89	=89	=89	=89	=89
2.r	2.r	.	(4E-\]	.	(4ee-/	2.r	.	2.r	2.r	.	2.r	2.r	.	2.r	2.r	.	2.r	.	(4cc\	.	(4g/	.	(4c\	.
.	.	.	4D\	.	4bn/	.	.	.	.	.	.	.	.	.	.	.	.	.	4bn\	.	4f/	.	4a-\	.
.	.	.	4E-\)	.	4cc/)	.	.	.	.	.	.	.	.	.	.	.	.	.	4cc\)	.	4e-/)	.	4g\)	.
=90	=90	=90	=90	=90	=90	=90	=90	=90	=90	=90	=90	=90	=90	=90	=90	=90	=90	=90	=90	=90	=90	=90	=90	=90
2.r	2.r	.	2F\	.	(4b-/	2.r	.	4r	2.r	.	2.r	2.r	.	2.r	2.r	.	2.r	.	(4b-/	.	(4d/	.	4f\	.
.	.	.	.	.	4an/)	.	.	4r	.	.	.	.	.	.	.	.	.	.	4a/)	.	4c/)	.	4r	.
.	.	.	4r	.	4f'/	.	.	4F'/	.	.	.	.	.	.	.	.	.	.	4f'/	.	4r	.	4r	.
=91	=91	=91	=91	=91	=91	=91	=91	=91	=91	=91	=91	=91	=91	=91	=91	=91	=91	=91	=91	=91	=91	=91	=91	=91
2.r	2.r	.	4BB-/	.	2.b-/	2.r	.	2.B-/	2.r	.	2.r	2.r	.	2.r	2.r	.	2.r	.	2.d/	.	2.r	.	2.r	.
.	.	.	4BB-/	.	.	.	.	.	.	.	.	.	.	.	.	.	.	.	.	.	.	.	.	.
.	.	.	4BB-/	.	.	.	.	.	.	.	.	.	.	.	.	.	.	.	.	.	.	.	.	.
=92	=92	=92	=92	=92	=92	=92	=92	=92	=92	=92	=92	=92	=92	=92	=92	=92	=92	=92	=92	=92	=92	=92	=92	=92
2.r	2.r	.	4BB-/	.	(4a/	2.r	.	(4A/	2.r	.	2.r	2.r	.	2.r	2.r	.	2.r	.	(4c/	.	2.r	.	2.r	.
.	.	.	4BB-/	.	4b-/	.	.	4B-/	.	.	.	.	.	.	.	.	.	.	4d/	.	.	.	.	.
.	.	.	4BB-/	.	4cc/)	.	.	4c/)	.	.	.	.	.	.	.	.	.	.	4e-/)	.	.	.	.	.
=93	=93	=93	=93	=93	=93	=93	=93	=93	=93	=93	=93	=93	=93	=93	=93	=93	=93	=93	=93	=93	=93	=93	=93	=93
2.r	2.r	.	4BB-/	.	(2cc#z/xx	2.r	z	(2c#z/	2.r	z	2.r	2.r	.	2.r	2.r	.	2.r	.	(2enz/	z	2.r	.	2.r	.
.	.	.	4r	.	.	.	.	.	.	.	.	.	.	.	.	.	.	.	.	.	.	.	.	.
.	.	.	4r	.	4dd/)	.	.	4d/)	.	.	.	.	.	.	.	.	.	.	4f/)	.	.	.	.	.
=94	=94	=94	=94	=94	=94	=94	=94	=94	=94	=94	=94	=94	=94	=94	=94	=94	=94	=94	=94	=94	=94	=94	=94	=94
2.r	2.r	.	(4BB-/	.	4b-/	2.r	.	4B-/	2.r	.	2.r	2.r	.	2.r	2.r	.	2.r	.	4d/	.	4r	.	(4D/	.
.	.	.	4C/	.	4r	.	.	4r	.	.	.	.	.	.	.	.	.	.	4r	.	4r	.	4E-/	.
.	.	.	4D/)	.	4ff'/xx	.	.	4f'/	.	.	.	.	.	.	.	.	.	.	4B-'/	.	4f'/	.	4F/)	.
=95	=95	=95	=95	=95	=95	=95	=95	=95	=95	=95	=95	=95	=95	=95	=95	=95	=95	=95	=95	=95	=95	=95	=95	=95
2.r	2.r	.	[2.E-\	.	(2ff#z/xx	2.r	z	(2f#z/	2.r	z	2.r	2.r	.	2.r	2.r	.	2.r	.	(2B-/	.	(2A-/	.	[2.E-/	.
.	.	.	.	.	4gg/)	.	.	4g/)	.	.	.	.	.	.	.	.	.	.	4Bn/)	.	4G/)	.	.	.
=96	=96	=96	=96	=96	=96	=96	=96	=96	=96	=96	=96	=96	=96	=96	=96	=96	=96	=96	=96	=96	=96	=96	=96	=96
2.r	2.r	.	2E-\]	.	&(4ee-/)	2.r	.	&(4e-/)	2.r	.	2.r	2.r	.	2.r	2.r	.	2.r	.	[2.c/	.	(2.g/	.	(2E-/]	.
.	.	.	.	.	4dd/	.	.	4d/	.	.	.	.	.	.	.	.	.	.	.	.	.	.	.	.
.	.	.	4En\	.	4cc/&)	.	.	4c/&)	.	.	.	.	.	.	.	.	.	.	.	.	.	.	4En/	.
=97	=97	=97	=97	=97	=97	=97	=97	=97	=97	=97	=97	=97	=97	=97	=97	=97	=97	=97	=97	=97	=97	=97	=97	=97
2.r	2.r	.	2F\	.	(4b-/	2.r	.	(4B-/	2.r	.	2.r	2.r	.	2.r	2.r	.	2.r	.	2c/]	.	4c/)	.	4F/)	.
.	.	.	.	.	4a/	.	.	4A/	.	.	.	.	.	.	.	.	.	.	.	.	4r	.	4r	.
.	.	.	4r	.	4g/)	.	.	4G/)	.	.	.	.	.	.	.	.	.	.	4r	.	4r	.	4r	.
=98	=98	=98	=98	=98	=98	=98	=98	=98	=98	=98	=98	=98	=98	=98	=98	=98	=98	=98	=98	=98	=98	=98	=98	=98
(2.fff/	(2.fff\	.	2.r	.	(4f/	(2.ff\	.	(4F/	2.r	.	(2.gg\	(2.g\	.	2.r	2.r	.	2.r	.	2.e-/	.	2.c/	.	(4A/	.
.	.	.	.	.	4g/	.	.	4G/	.	.	.	.	.	.	.	.	.	.	.	.	.	.	4G/	.
.	.	.	.	.	4a/	.	.	4A/)	.	.	.	.	.	.	.	.	.	.	.	.	.	.	4F/)	.
=99	=99	=99	=99	=99	=99	=99	=99	=99	=99	=99	=99	=99	=99	=99	=99	=99	=99	=99	=99	=99	=99	=99	=99	=99
4ddd/)	4ddd\)	.	4B-\	.	2.b-/)	4dd\)	.	2.B-/	2.r	.	4ee/)	4e/)	.	2.r	2.r	.	2.r	.	(4d/	.	(4B-/	.	2F/	.
4r	4ryy	.	4B-\	.	.	4r	.	.	.	.	4r	4r	.	.	.	.	.	.	4e-/	.	4c/	.	.	.
4r	4ryy	.	4B-\	.	.	4r	.	.	.	.	4r	4r	.	.	.	.	.	.	4f/)	.	4d/)	.	4r	.
=100	=100	=100	=100	=100	=100	=100	=100	=100	=100	=100	=100	=100	=100	=100	=100	=100	=100	=100	=100	=100	=100	=100	=100	=100
2.r	2.r	.	4B-\	.	(4a/	2.r	.	(4A/	2.r	.	2.r	2.r	.	2.r	2.r	.	2.r	.	2.g-/	.	2.e-/	.	2.r	.
.	.	.	4B-\	.	4b-/	.	.	4B-/	.	.	.	.	.	.	.	.	.	.	.	.	.	.	.	.
.	.	.	4B-\	.	4cc/)	.	.	4c/)	.	.	.	.	.	.	.	.	.	.	.	.	.	.	.	.
=101	=101	=101	=101	=101	=101	=101	=101	=101	=101	=101	=101	=101	=101	=101	=101	=101	=101	=101	=101	=101	=101	=101	=101	=101
2.r	2.r	.	2.B-\	.	(2.dd-/	2.r	.	(2.d-/	2.r	.	2.r	2.r	.	2.r	2.r	.	2.r	.	2.gn/	.	2.en/	.	2.B-/	.
=102	=102	=102	=102	=102	=102	=102	=102	=102	=102	=102	=102	=102	=102	=102	=102	=102	=102	=102	=102	=102	=102	=102	=102	=102
2.r	2.r	.	(4c-\	.	2.ddn/)	2.r	.	2.dn/)	2.r	.	2.r	2.r	.	2.r	2.r	.	2.r	.	(4a-/	.	2.f/	.	(4c-/	.
.	.	.	4B-\	.	.	.	.	.	.	.	.	.	.	.	.	.	.	.	4b-\	.	.	.	4B-/	.
.	.	.	4A-\)	.	.	.	.	.	.	.	.	.	.	.	.	.	.	.	4cc-\)	.	.	.	4A-/)	.
=103	=103	=103	=103	=103	=103	=103	=103	=103	=103	=103	=103	=103	=103	=103	=103	=103	=103	=103	=103	=103	=103	=103	=103	=103
2.r	2.r	.	(4G\	.	(4ee-/	2.r	.	(4e-/	2.r	.	2.r	2.r	.	2.r	2.r	.	2.r	.	[2.b-\	.	2.B-/	.	(4G/	.
.	.	.	4G-\	.	4een/	.	.	4en/	.	.	.	.	.	.	.	.	.	.	.	.	.	.	4G-/	.
.	.	.	4F\)	.	4ff/)	.	.	4f/)	.	.	.	.	.	.	.	.	.	.	.	.	.	.	4F/)	.
=104	=104	=104	=104	=104	=104	=104	=104	=104	=104	=104	=104	=104	=104	=104	=104	=104	=104	=104	=104	=104	=104	=104	=104	=104
2.r	2.r	.	2.En\	.	2.ggz/xx	2.r	z	2.gz/xx	2.r	z	2.r	2.r	.	2.r	2.r	.	2.r	.	2.b-\]	.	2.d-/	.	4En/	.
.	.	.	.	.	.	.	.	.	.	.	.	.	.	.	.	.	.	.	.	.	.	.	4r	.
.	.	.	.	.	.	.	.	.	.	.	.	.	.	.	.	.	.	.	.	.	.	.	4r	.
=105	=105	=105	=105	=105	=105	=105	=105	=105	=105	=105	=105	=105	=105	=105	=105	=105	=105	=105	=105	=105	=105	=105	=105	=105
(2.fff/	(2.fff\	.	2.F\	.	(4f/	(2.ff\	.	(4F/	2.r	.	(2.gg\	(2.g\	.	2.r	2.r	.	2.r	.	2.e-/	.	2.c/	.	(4An/	.
.	.	.	.	.	4g/	.	.	4G/	.	.	.	.	.	.	.	.	.	.	.	.	.	.	4G/	.
.	.	.	.	.	4a/)	.	.	4A/)	.	.	.	.	.	.	.	.	.	.	.	.	.	.	4F/)	.
=106	=106	=106	=106	=106	=106	=106	=106	=106	=106	=106	=106	=106	=106	=106	=106	=106	=106	=106	=106	=106	=106	=106	=106	=106
! Men. D.C.	!	!	! Men. D.C.	!	!	!	!	!	!	!	!	!	!	!	!	!	!	!	!	!	!	!	!	!
*	*	*	*	*	*	*	*	*	*	*	*	*	*	*v	*v	*	*	*	*	*	*	*	*	*
4ddd/)	4ddd\)	.	4BB-/	.	4b-/	4dd\)	.	4B-/	4r	.	4ee/)	4e/)	.	4r	.	4r	.	4d/	.	4B-/	.	4F/	.
4r	4ryy	.	4r	.	4r	4r	.	4r	4r	.	4r	4ryy	.	4r	.	4r	.	4r	.	4r	.	4r	.
==:|!	==:|!	==:|!	==:|!	==:|!	==:|!	==:|!	==:|!	==:|!	==:|!	==:|!	==:|!	==:|!	==:|!	==:|!	==:|!	==:|!	==:|!	==:|!	==:|!	==:|!	==:|!	==:|!	==:|!
*-	*-	*-	*-	*-	*-	*-	*-	*-	*-	*-	*-	*-	*-	*-	*-	*-	*-	*-	*-	*-	*-	*-	*-
!!!RWG: Appoggiaturas of spine 'Flauto 1, 2' need manual editing in measures: 1, 2, 3, 9, 10, 11
!!!RWG: Appoggiaturas of spine 'Oboe 1, 2' need manual editing in measures: 3, 11, 35, 36, 37, 43, 44, 45
!!!RWG: Appoggiaturas of spine 'Violino I' need manual editing in measures: 1, 2, 3, 9, 10, 11, 31, 33, 35, 36, 37, 43, 44, 45
!!!RWG: Appoggiaturas of spine 'Violino II' need manual editing in measures: 3, 11, 37, 45, 61
!!!RWG: Key is interpreted using the Humdrum key tool.
!!!AFT: stage2
!!!END: 1996/05/20
!!format changes:
!!content changes:
!!public access: complete
!!!KEY: 2259047958
!!!EMD: Converted from MuseData to Humdrum Dec 16, 2000, by Andreas Kornstaedt using muse2kern.
